;FLAVOR:Marlin
;TIME:1457
;Filament used: 5.05324m
;Layer height: 0.6
;MINX:70.871
;MINY:61.011
;MINZ:0.4
;MAXX:229.129
;MAXY:239.006
;MAXZ:14.537
;Generated with Cura_SteamEngine 4.5.0
M140 S60
M105
M190 S60
M104 S210
M105
M109 S210
M82 ;absolute extrusion mode
M201 X500.00 Y500.00 Z100.00 E5000.00 ;Setup machine max acceleration
M203 X500.00 Y500.00 Z10.00 E50.00 ;Setup machine max feedrate
M204 P500.00 R1000.00 T500.00 ;Setup Print/Retract/Travel acceleration
M205 X8.00 Y8.00 Z0.40 E5.00 ;Setup Jerk
M220 S100 ;Reset Feedrate
M221 S100 ;Reset Flowrate

G28 ;Home

G92 E0 ;Reset Extruder
G1 Z2.0 F3000 ;Move Z Axis up
G1 X10.1 Y20 Z0.28 F5000.0 ;Move to start position
G1 X10.1 Y200.0 Z0.28 F1500.0 E15 ;Draw the first line
G1 X10.4 Y200.0 Z0.28 F5000.0 ;Move to side a little
G1 X10.4 Y20 Z0.28 F1500.0 E30 ;Draw the second line
G92 E0 ;Reset Extruder
G1 Z2.0 F3000 ;Move Z Axis up

G92 E0
G92 E0
G1 F2700 E-5.5
;LAYER_COUNT:24
;LAYER:0
M107
;MESH:Face shield holder CoV-19 v7.stl
G0 F6000 X150.692 Y239.005 Z0.4
;TYPE:WALL-OUTER
G1 F2700 E0
G1 F900 X149.308 Y239.005 E0.21865
G1 X146.907 Y238.956 E0.59805
G1 X144.532 Y238.83 E0.9738
G1 X142.161 Y238.629 E1.34973
G1 X139.665 Y238.332 E1.74684
G1 X137.416 Y237.994 E2.10614
G1 X135.077 Y237.565 E2.48183
G1 X132.752 Y237.061 E2.85768
G1 X130.429 Y236.479 E3.23602
G1 X111.907 Y231.516 E6.26546
G1 X111.594 Y235.094 E6.83289
G1 X108.201 Y234.797 E7.37099
G1 X109.619 Y230.902 E8.02585
G1 X102.965 Y229.12 E9.11413
G1 X101.689 Y228.731 E9.32488
G1 X100.436 Y228.252 E9.53681
G1 X99.222 Y227.69 E9.74816
G1 X98.048 Y227.047 E9.95963
G1 X96.906 Y226.314 E10.17402
G1 X95.852 Y225.531 E10.38146
G1 X94.828 Y224.656 E10.59425
G1 X93.866 Y223.711 E10.80729
G1 X92.986 Y222.72 E11.01668
G1 X92.168 Y221.661 E11.22808
G1 X91.42 Y220.541 E11.44086
G1 X90.754 Y219.38 E11.65232
G1 X90.173 Y218.181 E11.86281
G1 X89.665 Y216.923 E12.07715
G1 X79.949 Y190.227 E16.56538
G1 X79.101 Y187.765 E16.97677
G1 X78.35 Y185.306 E17.38297
G1 X77.676 Y182.79 E17.79447
G1 X77.094 Y180.268 E18.20339
G1 X76.6 Y177.727 E18.61234
G1 X76.195 Y175.172 E19.02104
G1 X75.882 Y172.618 E19.42755
G1 X75.655 Y170.025 E19.83877
G1 X75.496 Y167.003 E20.31687
G1 X74.622 Y166.977 E20.45501
G1 X74.594 Y167.22 E20.49365
G1 X70.871 Y165.95 E21.11511
G1 X71.827 Y163.149 E21.58269
G1 X75.475 Y165.159 E22.24072
G1 X75.477 Y154.696 E23.89372
G1 X75.53 Y151.263 E24.43615
G1 X75.679 Y147.832 E24.97871
G1 X75.924 Y144.407 E25.5212
G1 X76.265 Y140.992 E26.0634
G1 X76.701 Y137.586 E26.60589
G1 X77.233 Y134.193 E27.14848
G1 X77.86 Y130.816 E27.69112
G1 X78.58 Y127.461 E28.23323
G1 X79.395 Y124.126 E28.77562
G1 X80.304 Y120.813 E29.31837
G1 X81.303 Y117.529 E29.86067
G1 X82.341 Y114.422 E30.3782
G1 X83.519 Y111.197 E30.92063
G1 X84.782 Y108.019 E31.4609
G1 X86.14 Y104.865 E32.00341
G1 X87.584 Y101.75 E32.54584
G1 X89.116 Y98.677 E33.08832
G1 X90.733 Y95.648 E33.63078
G1 X92.434 Y92.666 E34.17315
G1 X94.219 Y89.732 E34.71572
G1 X96.092 Y86.838 E35.26033
G1 X98.03 Y84.02 E35.80066
G1 X100.055 Y81.247 E36.34313
G1 X102.164 Y78.521 E36.88764
G1 X104.332 Y75.875 E37.42807
G1 X106.582 Y73.282 E37.97045
G1 X108.923 Y70.732 E38.51734
G1 X109.31 Y70.253 E38.61462
G1 X109.646 Y69.694 E38.71766
G1 X109.689 Y69.606 E38.73314
G1 X109.922 Y69.028 E38.83159
G1 X110.076 Y68.375 E38.93759
G1 X110.127 Y67.741 E39.03807
G1 X110.089 Y67.073 E39.14378
G1 X109.948 Y66.417 E39.24978
G1 X109.713 Y65.79 E39.35557
G1 X109.385 Y65.205 E39.46153
G1 X108.974 Y64.676 E39.56736
G1 X108.489 Y64.213 E39.67329
G1 X107.94 Y63.829 E39.77914
G1 X107.339 Y63.531 E39.88512
G1 X106.701 Y63.326 E39.99099
G1 X106.04 Y63.219 E40.09678
G1 X105.37 Y63.212 E40.20263
G1 X104.707 Y63.302 E40.30834
G1 X104.064 Y63.493 E40.41431
G1 X103.456 Y63.778 E40.5204
G1 X102.899 Y64.15 E40.62622
G1 X102.404 Y64.602 E40.73212
G1 X101.981 Y65.122 E40.83802
G1 X101.641 Y65.699 E40.94382
G1 X101.391 Y66.321 E41.04973
G1 X101.237 Y66.973 E41.15557
G1 X101.218 Y67.201 E41.19172
G1 X99.129 Y67.201 E41.52175
G1 X99.144 Y66.926 E41.56526
G1 X99.266 Y66.225 E41.67767
G1 X99.475 Y65.504 E41.79627
G1 X99.761 Y64.817 E41.91384
G1 X100.134 Y64.15 E42.03457
G1 X100.568 Y63.548 E42.15182
G1 X101.075 Y62.992 E42.27069
G1 X101.638 Y62.502 E42.38861
G1 X102.259 Y62.076 E42.50758
G1 X102.93 Y61.72 E42.62759
G1 X103.621 Y61.449 E42.74485
G1 X104.344 Y61.259 E42.86295
G1 X105.089 Y61.149 E42.98193
G1 X105.845 Y61.128 E43.10141
G1 X106.589 Y61.191 E43.21937
G1 X107.318 Y61.339 E43.33689
G1 X108.038 Y61.575 E43.4566
G1 X108.716 Y61.886 E43.57444
G1 X109.368 Y62.28 E43.6948
G1 X109.951 Y62.732 E43.81134
G1 X110.489 Y63.258 E43.93021
G1 X110.971 Y63.851 E44.05094
G1 X111.367 Y64.471 E44.16717
G1 X111.696 Y65.148 E44.28609
G1 X111.947 Y65.859 E44.40521
G1 X112.113 Y66.589 E44.52348
G1 X112.197 Y67.336 E44.64224
G1 X112.192 Y68.082 E44.7601
G1 X112.102 Y68.834 E44.87975
G1 X111.926 Y69.566 E44.99869
G1 X111.677 Y70.253 E45.11414
G1 X111.331 Y70.944 E45.23623
G1 X110.926 Y71.563 E45.35309
G1 X110.433 Y72.156 E45.47493
G1 X108.136 Y74.661 E46.01187
G1 X105.924 Y77.211 E46.54519
G1 X103.784 Y79.82 E47.07829
G1 X101.719 Y82.49 E47.61155
G1 X99.729 Y85.216 E48.14477
G1 X97.817 Y87.997 E48.67795
G1 X95.982 Y90.831 E49.21134
G1 X94.228 Y93.715 E49.74462
G1 X92.555 Y96.646 E50.2778
G1 X90.965 Y99.624 E50.81114
G1 X89.459 Y102.645 E51.34443
G1 X88.038 Y105.707 E51.87774
G1 X86.705 Y108.807 E52.41085
G1 X85.459 Y111.945 E52.94426
G1 X84.301 Y115.114 E53.4773
G1 X83.231 Y118.316 E54.01067
G1 X82.252 Y121.547 E54.54404
G1 X81.364 Y124.802 E55.07707
G1 X80.568 Y128.083 E55.61046
G1 X79.863 Y131.383 E56.14358
G1 X79.252 Y134.704 E56.67705
G1 X78.734 Y138.039 E57.21025
G1 X78.309 Y141.388 E57.74359
G1 X77.979 Y144.747 E58.27682
G1 X77.742 Y148.113 E58.80991
G1 X77.6 Y151.486 E59.34327
G1 X77.553 Y154.858 E59.87605
G1 X77.555 Y164.976 E61.47455
G1 X77.607 Y167.287 E61.83975
G1 X77.757 Y169.597 E62.20546
G1 X78.004 Y171.899 E62.57123
G1 X78.345 Y174.19 E62.93717
G1 X78.782 Y176.463 E63.30284
G1 X79.313 Y178.717 E63.66869
G1 X79.938 Y180.946 E64.03442
G1 X80.655 Y183.147 E64.40013
G1 X81.464 Y185.317 E64.76601
G1 X82.364 Y187.451 E65.13191
G1 X83.351 Y189.545 E65.49764
G1 X84.426 Y191.597 E65.86362
G1 X85.557 Y193.559 E66.2214
G1 X86.796 Y195.514 E66.58707
G1 X88.109 Y197.408 E66.95116
G1 X89.513 Y199.26 E67.31832
G1 X90.99 Y201.047 E67.6846
G1 X92.539 Y202.773 E68.05099
G1 X94.159 Y204.431 E68.41721
G1 X95.848 Y206.02 E68.78357
G1 X97.602 Y207.538 E69.15005
G1 X99.416 Y208.98 E69.51615
G1 X101.29 Y210.345 E69.88243
G1 X103.22 Y211.631 E70.24883
G1 X105.201 Y212.835 E70.61507
G1 X107.232 Y213.956 E70.98157
G1 X109.307 Y214.99 E71.34783
G1 X111.423 Y215.937 E71.71408
G1 X113.578 Y216.794 E72.08048
G1 X115.766 Y217.561 E72.44677
G1 X117.984 Y218.234 E72.81296
G1 X120.229 Y218.816 E73.17936
G1 X122.494 Y219.302 E73.54534
G1 X126.154 Y219.96 E74.13284
G1 X129.797 Y220.518 E74.7151
G1 X133.453 Y220.984 E75.29736
G1 X137.119 Y221.356 E75.87951
G1 X140.793 Y221.636 E76.46164
G1 X144.473 Y221.823 E77.04377
G1 X148.157 Y221.916 E77.62598
G1 X151.843 Y221.916 E78.20831
G1 X155.527 Y221.823 E78.79052
G1 X159.207 Y221.636 E79.37266
G1 X162.881 Y221.356 E79.95478
G1 X166.547 Y220.984 E80.53693
G1 X170.203 Y220.518 E81.1192
G1 X173.846 Y219.96 E81.70145
G1 X177.476 Y219.309 E82.28409
G1 X179.739 Y218.823 E82.64976
G1 X181.984 Y218.243 E83.01608
G1 X184.203 Y217.57 E83.38242
G1 X186.392 Y216.805 E83.74876
G1 X188.547 Y215.949 E84.1151
G1 X190.664 Y215.004 E84.48136
G1 X192.74 Y213.971 E84.8477
G1 X194.771 Y212.851 E85.21412
G1 X196.753 Y211.648 E85.58042
G1 X198.683 Y210.365 E85.94656
G1 X200.558 Y209 E86.31296
G1 X202.373 Y207.559 E86.67909
G1 X204.127 Y206.043 E87.04536
G1 X205.818 Y204.454 E87.41195
G1 X207.438 Y202.797 E87.77806
G1 X208.989 Y201.072 E88.14454
G1 X210.465 Y199.286 E88.51059
G1 X211.867 Y197.438 E88.87706
G1 X213.193 Y195.53 E89.24414
G1 X214.45 Y193.547 E89.61507
G1 X215.606 Y191.542 E89.98071
G1 X216.699 Y189.445 E90.35431
G1 X217.681 Y187.35 E90.71984
G1 X218.577 Y185.213 E91.08593
G1 X219.382 Y183.042 E91.45174
G1 X220.095 Y180.839 E91.81755
G1 X220.716 Y178.61 E92.18312
G1 X221.243 Y176.354 E92.54913
G1 X221.675 Y174.08 E92.91481
G1 X222.012 Y171.789 E93.28065
G1 X222.254 Y169.487 E93.64634
G1 X222.399 Y167.176 E94.01216
G1 X222.447 Y164.866 E94.37719
G1 X222.447 Y154.858 E95.95831
G1 X222.4 Y151.486 E96.49109
G1 X222.258 Y148.113 E97.02444
G1 X222.021 Y144.747 E97.55754
G1 X221.691 Y141.388 E98.09077
G1 X221.266 Y138.039 E98.62411
G1 X220.748 Y134.704 E99.15731
G1 X220.137 Y131.383 E99.69078
G1 X219.432 Y128.083 E100.2239
G1 X218.636 Y124.802 E100.75729
G1 X217.748 Y121.547 E101.29032
G1 X216.769 Y118.316 E101.82369
G1 X215.699 Y115.114 E102.35706
G1 X214.541 Y111.945 E102.8901
G1 X213.295 Y108.807 E103.42351
G1 X211.962 Y105.707 E103.95662
G1 X210.541 Y102.645 E104.48993
G1 X209.035 Y99.624 E105.02322
G1 X207.445 Y96.646 E105.55656
G1 X205.772 Y93.715 E106.08974
G1 X204.018 Y90.831 E106.62302
G1 X202.183 Y87.997 E107.15641
G1 X200.271 Y85.216 E107.68959
G1 X198.281 Y82.49 E108.22281
G1 X196.216 Y79.82 E108.75607
G1 X194.076 Y77.211 E109.28917
G1 X191.863 Y74.661 E109.82259
G1 X189.585 Y72.179 E110.35483
G1 X189.099 Y71.603 E110.47389
G1 X188.707 Y71.007 E110.58659
G1 X188.361 Y70.337 E110.70572
G1 X188.099 Y69.642 E110.82307
G1 X187.913 Y68.907 E110.94285
G1 X187.813 Y68.162 E111.0616
G1 X187.8 Y67.416 E111.17948
G1 X187.874 Y66.662 E111.29917
G1 X188.029 Y65.938 E111.41614
G1 X188.272 Y65.224 E111.5353
G1 X188.595 Y64.539 E111.65495
G1 X188.988 Y63.907 E111.77253
G1 X189.454 Y63.319 E111.89106
G1 X189.988 Y62.786 E112.01025
G1 X190.574 Y62.321 E112.12844
G1 X191.213 Y61.924 E112.24729
G1 X191.884 Y61.606 E112.3646
G1 X192.606 Y61.361 E112.48505
G1 X193.329 Y61.205 E112.60191
G1 X194.084 Y61.13 E112.72177
G1 X194.831 Y61.143 E112.83981
G1 X195.577 Y61.243 E112.95872
G1 X196.307 Y61.425 E113.07758
G1 X197.004 Y61.689 E113.19533
G1 X197.672 Y62.033 E113.31403
G1 X198.295 Y62.45 E113.43247
G1 X198.872 Y62.94 E113.55206
G1 X199.381 Y63.486 E113.66999
G1 X199.824 Y64.086 E113.78782
G1 X200.202 Y64.744 E113.90771
G1 X200.497 Y65.427 E114.02525
G1 X200.713 Y66.146 E114.14386
G1 X200.847 Y66.892 E114.2636
G1 X200.868 Y67.201 E114.31253
G1 X198.787 Y67.201 E114.6413
G1 X198.775 Y67.04 E114.6668
G1 X198.634 Y66.399 E114.77049
G1 X198.603 Y66.305 E114.78613
G1 X198.377 Y65.729 E114.88388
G1 X198.041 Y65.149 E114.98978
G1 X197.643 Y64.651 E115.0905
G1 X197.155 Y64.193 E115.19623
G1 X196.604 Y63.814 E115.30189
G1 X196.001 Y63.519 E115.40794
G1 X195.362 Y63.319 E115.51372
G1 X194.7 Y63.216 E115.61957
G1 X194.03 Y63.212 E115.72542
G1 X193.367 Y63.308 E115.83126
G1 X192.725 Y63.504 E115.9373
G1 X192.12 Y63.794 E116.0433
G1 X191.566 Y64.17 E116.14908
G1 X191.073 Y64.625 E116.25507
G1 X190.655 Y65.148 E116.36084
G1 X190.318 Y65.728 E116.46682
G1 X190.073 Y66.351 E116.57258
G1 X189.922 Y67.005 E116.67862
G1 X189.873 Y67.673 E116.78444
G1 X189.921 Y68.34 E116.89009
G1 X190.069 Y68.994 E116.99602
G1 X190.315 Y69.618 E117.10199
G1 X190.65 Y70.197 E117.20767
G1 X191.055 Y70.706 E117.31044
G1 X191.203 Y70.869 E117.34522
G1 X193.522 Y73.402 E117.88778
G1 X195.768 Y75.998 E118.4301
G1 X197.949 Y78.667 E118.97464
G1 X200.039 Y81.375 E119.51507
G1 X202.06 Y84.151 E120.05755
G1 X204.009 Y86.994 E120.60211
G1 X205.864 Y89.868 E121.14253
G1 X207.644 Y92.803 E121.68483
G1 X209.342 Y95.788 E122.22738
G1 X210.955 Y98.818 E122.76968
G1 X212.483 Y101.894 E123.31229
G1 X213.86 Y104.865 E123.82963
G1 X215.218 Y108.019 E124.37215
G1 X216.481 Y111.197 E124.91242
G1 X217.659 Y114.422 E125.45485
G1 X218.747 Y117.679 E125.99736
G1 X219.746 Y120.978 E126.54193
G1 X220.646 Y124.278 E127.08232
G1 X221.457 Y127.614 E127.62471
G1 X222.176 Y130.985 E128.16926
G1 X222.796 Y134.349 E128.70968
G1 X223.323 Y137.742 E129.25215
G1 X223.755 Y141.149 E129.79471
G1 X224.092 Y144.565 E130.33701
G1 X224.332 Y147.99 E130.87944
G1 X224.477 Y151.434 E131.42403
G1 X224.525 Y154.861 E131.9655
G1 X224.525 Y165.159 E133.59243
G1 X228.173 Y163.149 E134.25046
G1 X229.129 Y165.95 E134.71804
G1 X225.406 Y167.22 E135.3395
G1 X225.378 Y166.977 E135.37814
G1 X224.504 Y167.003 E135.51628
G1 X224.345 Y170.025 E135.99438
G1 X224.118 Y172.618 E136.4056
G1 X223.805 Y175.172 E136.81212
G1 X223.4 Y177.727 E137.22081
G1 X222.906 Y180.268 E137.62977
G1 X222.324 Y182.79 E138.03868
G1 X221.65 Y185.306 E138.45018
G1 X220.899 Y187.765 E138.85639
G1 X220.051 Y190.227 E139.26777
G1 X210.335 Y216.923 E143.756
G1 X209.827 Y218.181 E143.97034
G1 X209.246 Y219.38 E144.18083
G1 X208.58 Y220.541 E144.39229
G1 X207.832 Y221.661 E144.60507
G1 X207.014 Y222.72 E144.81647
G1 X206.134 Y223.711 E145.02586
G1 X205.172 Y224.656 E145.2389
G1 X204.148 Y225.531 E145.4517
G1 X203.094 Y226.314 E145.65913
G1 X201.952 Y227.047 E145.87352
G1 X200.778 Y227.69 E146.08499
G1 X199.564 Y228.252 E146.29634
G1 X198.311 Y228.731 E146.50827
G1 X197.035 Y229.12 E146.71902
G1 X190.381 Y230.902 E147.8073
G1 X191.799 Y234.797 E148.46216
G1 X188.406 Y235.094 E149.00026
G1 X188.093 Y231.516 E149.56769
G1 X169.571 Y236.479 E152.59713
G1 X167.248 Y237.061 E152.97547
G1 X164.923 Y237.565 E153.35132
G1 X162.585 Y237.994 E153.72686
G1 X160.099 Y238.364 E154.12393
G1 X157.84 Y238.629 E154.48327
G1 X155.468 Y238.83 E154.85936
G1 X153.093 Y238.956 E155.2351
G1 X150.692 Y239.005 E155.6145
G0 F6000 X150.673 Y238.065
;TYPE:SKIN
G1 F900 X149.327 Y238.065 E155.82715
G1 X146.926 Y238.016 E156.20655
G1 X144.597 Y237.892 E156.57502
G1 X142.272 Y237.695 E156.94366
G1 X139.787 Y237.399 E157.33903
G1 X137.556 Y237.064 E157.69544
G1 X135.255 Y236.642 E158.06503
G1 X132.981 Y236.149 E158.43264
G1 X130.665 Y235.569 E158.80983
G1 X111.068 Y230.318 E162.01509
G1 X110.739 Y234.076 E162.61107
G1 X109.503 Y233.968 E162.80709
G1 X110.854 Y230.259 E163.43072
G1 X103.224 Y228.216 E164.67861
G1 X101.994 Y227.841 E164.88176
G1 X100.801 Y227.385 E165.08354
G1 X99.649 Y226.851 E165.28414
G1 X98.526 Y226.237 E165.48635
G1 X97.427 Y225.531 E165.69271
G1 X96.453 Y224.808 E165.88435
G1 X95.463 Y223.963 E166.08998
G1 X94.542 Y223.057 E166.29409
G1 X93.707 Y222.117 E166.49273
G1 X92.936 Y221.119 E166.69197
G1 X92.217 Y220.041 E166.89668
G1 X91.587 Y218.945 E167.0964
G1 X91.027 Y217.787 E167.29962
G1 X90.541 Y216.584 E167.5046
G1 X80.835 Y189.913 E171.98858
G1 X79.99 Y187.459 E172.39861
G1 X79.254 Y185.047 E172.79702
G1 X78.588 Y182.562 E173.20347
G1 X78.01 Y180.056 E173.60978
G1 X77.522 Y177.547 E174.01359
G1 X77.126 Y175.041 E174.41442
G1 X76.817 Y172.518 E174.81599
G1 X76.591 Y169.943 E175.22437
G1 X76.415 Y166.58 E175.7564
G1 X76.417 Y154.71 E177.63169
G1 X76.47 Y151.304 E178.16985
G1 X76.617 Y147.899 E178.7083
G1 X76.86 Y144.5 E179.24666
G1 X77.201 Y141.085 E179.78886
G1 X77.629 Y137.732 E180.32289
G1 X78.157 Y134.365 E180.86133
G1 X78.782 Y131.001 E181.40189
G1 X79.493 Y127.684 E181.93783
G1 X80.305 Y124.362 E182.47811
G1 X81.207 Y121.074 E183.01676
G1 X82.185 Y117.857 E183.54796
G1 X83.241 Y114.696 E184.07449
G1 X84.402 Y111.52 E184.60872
G1 X85.645 Y108.391 E185.14064
G1 X86.993 Y105.261 E185.67904
G1 X88.431 Y102.158 E186.21935
G1 X89.945 Y99.12 E186.75561
G1 X91.55 Y96.113 E187.29411
G1 X93.237 Y93.155 E187.83209
G1 X95.008 Y90.243 E188.37055
G1 X96.874 Y87.36 E188.9131
G1 X98.79 Y84.574 E189.44729
G1 X100.799 Y81.823 E189.98546
G1 X102.9 Y79.107 E190.52795
G1 X105.051 Y76.481 E191.06423
G1 X107.275 Y73.917 E191.60046
G1 X109.635 Y71.346 E192.15182
G1 X110.082 Y70.793 E192.26416
G1 X110.473 Y70.143 E192.384
G1 X110.548 Y69.987 E192.41134
G1 X110.82 Y69.313 E192.52617
G1 X111.008 Y68.521 E192.65477
G1 X111.069 Y67.752 E192.77664
G1 X111.023 Y66.947 E192.90403
G1 X110.852 Y66.152 E193.0325
G1 X110.568 Y65.393 E193.16053
G1 X110.17 Y64.684 E193.28898
G1 X109.673 Y64.045 E193.41688
G1 X109.087 Y63.483 E193.54515
G1 X108.421 Y63.018 E193.67348
G1 X107.693 Y62.658 E193.80179
G1 X106.921 Y62.41 E193.92989
G1 X106.121 Y62.279 E194.05796
G1 X105.311 Y62.272 E194.18594
G1 X104.509 Y62.38 E194.31378
G1 X103.729 Y62.612 E194.44235
G1 X102.993 Y62.957 E194.57077
