;FLAVOR:Marlin
;TIME:1879
;Filament used: 4.27682m
;Layer height: 0.3
;MINX:70.664
;MINY:41.248
;MINZ:0.3
;MAXX:229.336
;MAXY:219.619
;MAXZ:14.4
;Generated with Cura_SteamEngine 4.5.0
M140 S60
M105
M190 S60
M104 S205
M105
M109 S205
M82 ;absolute extrusion mode
M201 X500.00 Y500.00 Z100.00 E5000.00 ;Setup machine max acceleration
M203 X500.00 Y500.00 Z10.00 E50.00 ;Setup machine max feedrate
M204 P500.00 R1000.00 T500.00 ;Setup Print/Retract/Travel acceleration
M205 X8.00 Y8.00 Z0.40 E5.00 ;Setup Jerk
M220 S100 ;Reset Feedrate
M221 S100 ;Reset Flowrate

G28 ;Home

G92 E0 ;Reset Extruder
G1 Z2.0 F3000 ;Move Z Axis up
G1 X10.1 Y20 Z0.28 F5000.0 ;Move to start position
G1 X10.1 Y200.0 Z0.28 F1500.0 E15 ;Draw the first line
G1 X10.4 Y200.0 Z0.28 F5000.0 ;Move to side a little
G1 X10.4 Y20 Z0.28 F1500.0 E30 ;Draw the second line
G92 E0 ;Reset Extruder
G1 Z2.0 F3000 ;Move Z Axis up
G92 E0
G92 E0
G1 F1500 E-6.5
;LAYER_COUNT:48
;LAYER:0
M107
;MESH:MV_FS_Bash_Test v3.stl
G0 F1080 X75.75 Y146.468 Z0.3
;TYPE:WALL-INNER
G1 F1500 E0
G1 F900 X75.75 Y146.047 E0.02625
G1 X75.75 Y146.046 E0.02632
G1 X75.752 Y135.111 E0.70825
G1 X75.798 Y131.834 E0.91264
G1 X75.942 Y128.404 E1.12673
G1 X76.18 Y124.994 E1.3399
G1 X76.518 Y121.569 E1.55453
G1 X76.947 Y118.185 E1.76726
G1 X77.473 Y114.8 E1.98089
G1 X78.096 Y111.417 E2.19541
G1 X78.809 Y108.073 E2.40864
G1 X79.619 Y104.737 E2.62273
G1 X80.516 Y101.445 E2.83551
G1 X81.514 Y98.153 E3.05003
G1 X82.595 Y94.917 E3.2628
G1 X83.721 Y91.832 E3.46761
G1 X84.984 Y88.64 E3.68168
G1 X86.331 Y85.505 E3.89447
G1 X87.768 Y82.395 E4.10812
G1 X89.299 Y79.314 E4.32268
G1 X90.901 Y76.302 E4.53543
G1 X92.603 Y73.312 E4.74999
G1 X94.372 Y70.395 E4.96274
G1 X96.234 Y67.512 E5.17677
G1 X98.167 Y64.692 E5.38998
G1 X100.185 Y61.923 E5.60366
G1 X102.287 Y59.2 E5.81818
G1 X104.445 Y56.558 E6.03092
G1 X106.692 Y53.963 E6.24499
G1 X109.028 Y51.411 E6.46075
G1 X109.551 Y50.78 E6.51186
G1 X109.927 Y50.141 E6.55809
G1 X110.196 Y49.453 E6.60416
G1 X110.355 Y48.734 E6.65008
G1 X110.403 Y48 E6.69595
G1 X110.339 Y47.265 E6.74197
G1 X110.158 Y46.548 E6.78808
G1 X109.868 Y45.869 E6.83413
G1 X109.478 Y45.243 E6.88012
G1 X108.994 Y44.686 E6.92614
G1 X108.43 Y44.21 E6.97216
G1 X107.802 Y43.827 E7.01804
G1 X107.12 Y43.545 E7.06406
G1 X106.402 Y43.373 E7.1101
G1 X105.668 Y43.314 E7.15603
G1 X104.932 Y43.367 E7.20204
G1 X104.212 Y43.536 E7.24817
G1 X103.531 Y43.815 E7.29406
G1 X102.897 Y44.195 E7.34016
G1 X102.332 Y44.669 E7.38615
G1 X101.846 Y45.223 E7.43211
G1 X101.452 Y45.847 E7.47813
G1 X101.16 Y46.525 E7.52417
G1 X100.999 Y47.153 E7.5646
G1 X100.949 Y47.293 E7.57387
G1 X100.94 Y47.299 E7.57454
G1 X100.918 Y47.305 E7.57596
G1 X99.863 Y47.312 E7.64176
G1 X99.661 Y47.313 E7.65436
G1 X99.545 Y47.298 E7.66165
G1 X99.53 Y47.289 E7.66274
G1 X99.518 Y47.272 E7.66404
G1 X99.512 Y47.243 E7.66589
G1 X99.547 Y47.045 E7.67843
G1 X99.638 Y46.539 E7.71049
G1 X99.86 Y45.841 E7.75616
G1 X100.16 Y45.181 E7.80138
G1 X100.535 Y44.556 E7.84683
G1 X100.983 Y43.978 E7.89244
G1 X101.487 Y43.466 E7.93724
G1 X102.065 Y43.002 E7.98346
G1 X102.681 Y42.615 E8.02883
G1 X103.337 Y42.306 E8.07405
G1 X104.035 Y42.072 E8.11996
G1 X104.744 Y41.924 E8.16513
G1 X105.467 Y41.86 E8.2104
G1 X106.202 Y41.882 E8.25625
G1 X106.922 Y41.989 E8.30165
G1 X107.624 Y42.179 E8.347
G1 X108.302 Y42.452 E8.39258
G1 X108.94 Y42.8 E8.4379
G1 X109.534 Y43.222 E8.48334
G1 X110.086 Y43.721 E8.52975
G1 X110.555 Y44.257 E8.57416
G1 X110.969 Y44.861 E8.61983
G1 X111.306 Y45.504 E8.6651
G1 X111.568 Y46.192 E8.71101
G1 X111.745 Y46.886 E8.75568
G1 X111.843 Y47.618 E8.80174
G1 X111.853 Y48.349 E8.84733
G1 X111.777 Y49.069 E8.89248
G1 X111.614 Y49.787 E8.93839
G1 X111.371 Y50.472 E8.98372
G1 X111.049 Y51.127 E9.02924
G1 X110.654 Y51.735 E9.07445
G1 X110.177 Y52.31 E9.12104
G1 X107.978 Y54.709 E9.324
G1 X105.756 Y57.264 E9.53516
G1 X103.607 Y59.878 E9.74619
G1 X101.533 Y62.554 E9.95733
G1 X99.533 Y65.284 E10.16838
G1 X97.61 Y68.072 E10.37959
G1 X95.768 Y70.911 E10.59064
G1 X94.006 Y73.802 E10.80178
G1 X92.325 Y76.74 E11.01287
G1 X90.727 Y79.723 E11.22391
G1 X89.214 Y82.751 E11.43501
G1 X87.786 Y85.82 E11.6461
G1 X86.443 Y88.927 E11.85719
G1 X85.188 Y92.072 E12.06836
G1 X84.024 Y95.249 E12.27936
G1 X82.948 Y98.459 E12.4905
G1 X81.963 Y101.698 E12.70162
G1 X81.067 Y104.963 E12.91276
G1 X80.265 Y108.251 E13.12382
G1 X79.555 Y111.56 E13.33488
G1 X78.937 Y114.89 E13.54609
G1 X78.413 Y118.234 E13.75718
G1 X77.984 Y121.59 E13.96817
G1 X77.648 Y124.958 E14.17925
G1 X77.407 Y128.335 E14.39039
G1 X77.26 Y131.718 E14.60156
G1 X77.209 Y135.097 E14.81231
G1 X77.207 Y144.823 E15.41885
G1 X77.253 Y147.48 E15.58457
G1 X77.395 Y149.811 E15.73021
G1 X77.634 Y152.134 E15.87584
G1 X77.97 Y154.443 E16.02135
G1 X78.403 Y156.738 E16.167
G1 X78.932 Y159.012 E16.3126
G1 X79.554 Y161.262 E16.45818
G1 X80.271 Y163.485 E16.60384
G1 X81.081 Y165.675 E16.74946
G1 X81.981 Y167.828 E16.89499
G1 X82.971 Y169.943 E17.04062
G1 X84.048 Y172.015 E17.18625
G1 X85.211 Y174.039 E17.33182
G1 X86.48 Y176.051 E17.48017
G1 X87.815 Y177.979 E17.62641
G1 X89.234 Y179.852 E17.77296
G1 X90.725 Y181.659 E17.91905
G1 X92.285 Y183.395 E18.06461
G1 X93.916 Y185.063 E18.21009
G1 X95.614 Y186.664 E18.35563
G1 X97.379 Y188.191 E18.50118
G1 X99.207 Y189.644 E18.6468
G1 X101.093 Y191.017 E18.79228
G1 X103.034 Y192.312 E18.9378
G1 X105.029 Y193.523 E19.08334
G1 X107.073 Y194.651 E19.22893
G1 X109.161 Y195.692 E19.37443
G1 X111.292 Y196.645 E19.52001
G1 X113.46 Y197.507 E19.66551
G1 X115.662 Y198.279 E19.81102
G1 X117.895 Y198.957 E19.95656
G1 X120.155 Y199.542 E20.10214
G1 X122.434 Y200.031 E20.2475
G1 X126.057 Y200.682 E20.47706
G1 X129.708 Y201.242 E20.70741
G1 X133.373 Y201.71 E20.93783
G1 X137.048 Y202.085 E21.1682
G1 X140.73 Y202.367 E21.39849
G1 X144.42 Y202.555 E21.62891
G1 X148.113 Y202.649 E21.85929
G1 X151.807 Y202.65 E22.08966
G1 X155.499 Y202.558 E22.31997
G1 X159.189 Y202.372 E22.55038
G1 X162.871 Y202.092 E22.78066
G1 X166.546 Y201.719 E23.01102
G1 X170.211 Y201.253 E23.24142
G1 X173.863 Y200.697 E23.4718
G1 X177.502 Y200.045 E23.70235
G1 X179.819 Y199.548 E23.85013
G1 X182.08 Y198.965 E23.99574
G1 X184.313 Y198.287 E24.14128
G1 X186.515 Y197.516 E24.28678
G1 X188.684 Y196.654 E24.43233
G1 X190.815 Y195.703 E24.57786
G1 X192.904 Y194.662 E24.72341
G1 X194.948 Y193.536 E24.86895
G1 X196.943 Y192.325 E25.01449
G1 X198.886 Y191.031 E25.16007
G1 X200.772 Y189.658 E25.30555
G1 X202.6 Y188.207 E25.4511
G1 X204.365 Y186.683 E25.59652
G1 X206.065 Y185.082 E25.74215
G1 X207.697 Y183.414 E25.88768
G1 X209.257 Y181.68 E26.03314
G1 X210.744 Y179.88 E26.17874
G1 X212.15 Y178.026 E26.32385
G1 X213.47 Y176.124 E26.46823
G1 X214.716 Y174.165 E26.61302
G1 X215.903 Y172.106 E26.76123
G1 X216.984 Y170.036 E26.90687
G1 X217.977 Y167.924 E27.05241
G1 X218.883 Y165.771 E27.19808
G1 X219.695 Y163.582 E27.34368
G1 X220.416 Y161.36 E27.48936
G1 X221.042 Y159.112 E27.63489
G1 X221.576 Y156.839 E27.7805
G1 X222.014 Y154.546 E27.92608
G1 X222.354 Y152.235 E28.07175
G1 X222.597 Y149.914 E28.21729
G1 X222.745 Y147.583 E28.36295
G1 X222.793 Y145.257 E28.50803
G1 X222.793 Y135.676 E29.10553
G1 X222.748 Y132.011 E29.33411
G1 X222.611 Y128.628 E29.54525
G1 X222.378 Y125.251 E29.75635
G1 X222.05 Y121.882 E29.96745
G1 X221.629 Y118.523 E30.17856
G1 X221.114 Y115.178 E30.38962
G1 X220.504 Y111.848 E30.60075
G1 X219.802 Y108.537 E30.81182
G1 X219.007 Y105.247 E31.0229
G1 X218.12 Y101.979 E31.23407
G1 X217.143 Y98.738 E31.44518
G1 X216.074 Y95.527 E31.65623
G1 X214.917 Y92.346 E31.86732
G1 X213.67 Y89.199 E32.07842
G1 X212.335 Y86.087 E32.2896
G1 X210.914 Y83.016 E32.50062
G1 X209.409 Y79.984 E32.71172
G1 X207.818 Y76.996 E32.92283
G1 X206.144 Y74.054 E33.13392
G1 X204.389 Y71.159 E33.34504
G1 X202.552 Y68.315 E33.55618
G1 X200.637 Y65.524 E33.76727
G1 X198.644 Y62.788 E33.97836
G1 X196.577 Y60.108 E34.18943
G1 X194.434 Y57.488 E34.40052
G1 X192.218 Y54.928 E34.61167
G1 X189.939 Y52.439 E34.82213
G1 X189.362 Y51.763 E34.87755
G1 X188.966 Y51.157 E34.9227
G1 X188.638 Y50.5 E34.96849
G1 X188.392 Y49.82 E35.01359
G1 X188.227 Y49.102 E35.05953
G1 X188.147 Y48.385 E35.10453
G1 X188.153 Y47.651 E35.1503
G1 X188.245 Y46.929 E35.19569
G1 X188.419 Y46.223 E35.24104
G1 X188.679 Y45.537 E35.28679
G1 X189.016 Y44.885 E35.33256
G1 X189.419 Y44.29 E35.37737
G1 X189.901 Y43.733 E35.42331
G1 X190.432 Y43.249 E35.46812
G1 X191.035 Y42.817 E35.51438
G1 X191.668 Y42.467 E35.55948
G1 X192.338 Y42.193 E35.60463
G1 X193.057 Y41.992 E35.65118
G1 X193.759 Y41.885 E35.69547
G1 X194.504 Y41.86 E35.74196
G1 X195.218 Y41.919 E35.78663
G1 X195.94 Y42.067 E35.8326
G1 X196.629 Y42.294 E35.87784
G1 X197.286 Y42.599 E35.92301
G1 X197.915 Y42.988 E35.96913
G1 X198.479 Y43.438 E36.01413
G1 X198.995 Y43.957 E36.05977
G1 X199.443 Y44.528 E36.10503
G1 X199.824 Y45.154 E36.15073
G1 X200.126 Y45.812 E36.19588
G1 X200.349 Y46.505 E36.24128
G1 X200.444 Y46.981 E36.27155
G1 X200.486 Y47.196 E36.28521
G1 X200.485 Y47.263 E36.28939
G1 X200.478 Y47.28 E36.29054
G1 X200.467 Y47.291 E36.29151
G1 X200.41 Y47.309 E36.29523
G1 X200.19 Y47.309 E36.30895
G1 X199.137 Y47.313 E36.37462
G1 X199.073 Y47.303 E36.37866
G1 X199.05 Y47.276 E36.38087
G1 X198.857 Y46.576 E36.42616
G1 X198.578 Y45.906 E36.47142
G1 X198.193 Y45.277 E36.51741
G1 X197.715 Y44.714 E36.56347
G1 X197.156 Y44.234 E36.60942
G1 X196.529 Y43.845 E36.65543
G1 X195.85 Y43.557 E36.70143
G1 X195.134 Y43.379 E36.74744
G1 X194.4 Y43.314 E36.79339
G1 X193.663 Y43.362 E36.83945
G1 X192.943 Y43.524 E36.88547
G1 X192.257 Y43.797 E36.93152
G1 X191.623 Y44.171 E36.97742
G1 X191.052 Y44.64 E37.0235
G1 X190.562 Y45.192 E37.06953
G1 X190.164 Y45.812 E37.11548
G1 X189.865 Y46.486 E37.16146
G1 X189.675 Y47.199 E37.20748
G1 X189.598 Y47.933 E37.2535
G1 X189.632 Y48.668 E37.29939
G1 X189.783 Y49.391 E37.34545
G1 X190.044 Y50.082 E37.39151
G1 X190.41 Y50.724 E37.4376
G1 X190.849 Y51.275 E37.48154
G1 X193.201 Y53.84 E37.69856
G1 X195.46 Y56.444 E37.91355
G1 X197.619 Y59.077 E38.12589
G1 X199.727 Y61.803 E38.34079
G1 X201.744 Y64.565 E38.55408
G1 X203.677 Y67.376 E38.76683
G1 X205.546 Y70.263 E38.9813
G1 X207.324 Y73.184 E39.19456
G1 X209.018 Y76.153 E39.40773
G1 X210.632 Y79.176 E39.62144
G1 X212.16 Y82.241 E39.83502
G1 X213.607 Y85.362 E40.04955
G1 X214.906 Y88.379 E40.2544
G1 X216.167 Y91.542 E40.46675
G1 X217.349 Y94.765 E40.68084
G1 X218.441 Y98.02 E40.89495
G1 X219.434 Y101.284 E41.10771
G1 X220.339 Y104.588 E41.32135
G1 X221.154 Y107.922 E41.53539
G1 X221.872 Y111.266 E41.74868
G1 X222.498 Y114.648 E41.96317
G1 X223.026 Y118.019 E42.17596
G1 X223.461 Y121.416 E42.38954
G1 X223.803 Y124.833 E42.6037
G1 X224.046 Y128.243 E42.81689
G1 X224.195 Y131.679 E43.03137
G1 X224.247 Y135.1 E43.24474
G1 X224.25 Y146.046 E43.92736
G1 X224.25 Y146.047 E43.92743
G1 X224.25 Y146.468 E43.95368
G1 X224.62 Y146.266 E43.96867
G1 X227.685 Y144.585 E44.18667
G1 X227.945 Y144.443 E44.20514
G1 X228.04 Y144.724 E44.21655
G1 X228.701 Y146.674 E44.34495
G1 X224.201 Y148.2 E44.64128
G1 X224.02 Y151.068 E44.82049
G1 X223.782 Y153.537 E44.97518
G1 X223.46 Y156.012 E45.13083
G1 X223.06 Y158.45 E45.2849
G1 X222.577 Y160.875 E45.4391
G1 X222.013 Y163.289 E45.5937
G1 X221.361 Y165.699 E45.7494
G1 X220.638 Y168.063 E45.90357
G1 X219.831 Y170.412 E46.05846
G1 X210.079 Y197.208 E47.83676
G1 X209.597 Y198.403 E47.91711
G1 X209.029 Y199.586 E47.99895
G1 X208.37 Y200.744 E48.08204
G1 X207.648 Y201.83 E48.16337
G1 X206.833 Y202.892 E48.24686
G1 X205.97 Y203.869 E48.32815
G1 X205.027 Y204.799 E48.41075
G1 X204.017 Y205.668 E48.49384
G1 X202.978 Y206.445 E48.57475
G1 X201.869 Y207.16 E48.65703
G1 X200.696 Y207.808 E48.74061
G1 X199.517 Y208.358 E48.82174
G1 X198.282 Y208.834 E48.90428
G1 X197.005 Y209.228 E48.98762
G1 X190.517 Y210.969 E49.40654
G1 X190.255 Y211.039 E49.42346
G1 X190.347 Y211.294 E49.43414
G1 X191.555 Y214.614 E49.65446
G1 X191.666 Y214.919 E49.6747
G1 X191.343 Y214.947 E49.6869
G1 X188.655 Y215.182 E49.85518
G1 X188.363 Y211.848 E50.06389
G1 X188.362 Y211.847 E50.06398
G1 X188.338 Y211.553 E50.08237
G1 X188.052 Y211.629 E50.09374
G1 X169.504 Y216.6 E51.29127
G1 X167.281 Y217.155 E51.43416
G1 X164.983 Y217.657 E51.58084
G1 X162.619 Y218.093 E51.73076
G1 X160.274 Y218.451 E51.87869
G1 X157.83 Y218.742 E52.03218
G1 X155.556 Y218.933 E52.1745
G1 X153.182 Y219.062 E52.32276
G1 X150.79 Y219.114 E52.47197
G1 X150.23 Y219.119 E52.50689
G1 X149.313 Y219.117 E52.56408
G1 X147.024 Y219.071 E52.70686
G1 X144.649 Y218.949 E52.85517
G1 X142.288 Y218.753 E53.00291
G1 X139.928 Y218.478 E53.15108
G1 X137.464 Y218.11 E53.30645
G1 X135.227 Y217.701 E53.44827
G1 X132.903 Y217.2 E53.59653
G1 X130.596 Y216.625 E53.7448
G1 X111.948 Y211.629 E54.94875
G1 X111.662 Y211.553 E54.96721
G1 X111.638 Y211.847 E54.97852
G1 X111.637 Y211.848 E54.9786
G1 X111.345 Y215.183 E55.18738
G1 X108.656 Y214.949 E55.35571
G1 X108.333 Y214.921 E55.37593
G1 X108.444 Y214.616 E55.38814
G1 X109.653 Y211.294 E55.6086
G1 X109.746 Y211.039 E55.62553
G1 X109.484 Y210.969 E55.6362
G1 X103.304 Y209.315 E56.03517
G1 X101.827 Y208.872 E56.13133
G1 X100.59 Y208.405 E56.21379
G1 X99.397 Y207.858 E56.29563
G1 X98.235 Y207.223 E56.37821
G1 X97.126 Y206.518 E56.46017
G1 X96.061 Y205.73 E56.54279
G1 X95.056 Y204.875 E56.62507
G1 X94.117 Y203.961 E56.70679
G1 X93.231 Y202.969 E56.78974
G1 X92.427 Y201.933 E56.87152
G1 X91.683 Y200.827 E56.95465
G1 X91.03 Y199.695 E57.03614
G1 X90.447 Y198.502 E57.11895
G1 X89.95 Y197.279 E57.20128
G1 X80.205 Y170.513 E58.97767
G1 X79.43 Y168.267 E59.12584
G1 X78.696 Y165.89 E59.28098
G1 X78.046 Y163.514 E59.4346
G1 X77.471 Y161.084 E59.59033
G1 X76.979 Y158.653 E59.745
G1 X76.574 Y156.225 E59.89851
G1 X76.244 Y153.75 E60.05423
G1 X75.989 Y151.174 E60.21566
G1 X75.796 Y148.199 E60.40158
G1 X71.534 Y146.754 E60.68223
G1 X71.298 Y146.674 E60.69777
G1 X71.378 Y146.438 E60.70782
G1 X71.96 Y144.724 E60.8207
G1 X72.055 Y144.442 E60.83926
G1 X72.316 Y144.585 E60.85069
G1 X75.38 Y146.266 E61.06864
G1 X75.75 Y146.468 E61.08363
G0 F1080 X75.8 Y146.554
G0 X78.894 Y159.021
G0 X79.516 Y161.273
G0 X80.234 Y163.498
G0 X81.044 Y165.689
G0 X81.945 Y167.844
G0 X82.936 Y169.96
G0 X84.013 Y172.034
G0 X85.177 Y174.059
G0 X86.447 Y176.073
G0 X87.783 Y178.002
G0 X89.203 Y179.876
G0 X90.695 Y181.685
G0 X92.256 Y183.422
G0 X93.888 Y185.091
G0 X95.588 Y186.693
G0 X97.354 Y188.221
G0 X99.183 Y189.675
G0 X101.071 Y191.049
G0 X103.013 Y192.345
G0 X105.009 Y193.557
G0 X107.055 Y194.686
G0 X109.144 Y195.728
G0 X111.277 Y196.681
G0 X113.446 Y197.544
G0 X115.65 Y198.317
G0 X117.885 Y198.995
G0 X120.146 Y199.58
G0 X122.427 Y200.07
G0 X126.051 Y200.721
G0 X129.703 Y201.281
G0 X133.369 Y201.749
G0 X137.045 Y202.124
G0 X140.728 Y202.406
G0 X144.419 Y202.594
G0 X148.113 Y202.688
G0 X151.807 Y202.689
G0 X155.5 Y202.597
G0 X159.191 Y202.411
G0 X162.874 Y202.131
G0 X166.55 Y201.758
G0 X170.216 Y201.292
G0 X173.869 Y200.736
G0 X177.509 Y200.084
G0 X179.828 Y199.586
G0 X182.09 Y199.003
G0 X184.325 Y198.325
G0 X186.528 Y197.553
G0 X188.699 Y196.69
G0 X190.832 Y195.739
G0 X192.922 Y194.697
G0 X194.968 Y193.57
G0 X196.964 Y192.358
G0 X198.908 Y191.063
G0 X200.796 Y189.689
G0 X202.625 Y188.237
G0 X204.391 Y186.712
G0 X206.093 Y185.11
G0 X207.726 Y183.441
G0 X209.287 Y181.706
G0 X210.775 Y179.904
G0 X212.182 Y178.049
G0 X213.503 Y176.146
G0 X214.75 Y174.185
G0 X215.938 Y172.125
G0 X217.019 Y170.053
G0 X218.013 Y167.94
G0 X218.92 Y165.785
G0 X219.732 Y163.595
G0 X220.454 Y161.371
G0 X221.08 Y159.121
G0 X223.631 Y148.9
G0 X225.038 Y146.15
G0 X224.75 Y145.624
;TYPE:WALL-OUTER
G1 F900 X225.119 Y145.422 E61.10986
