;FLAVOR:Marlin
;TIME:931
;Filament used: 4.26553m
;Layer height: 0.6
;MINX:70.886
;MINY:22.383
;MINZ:0.45
;MAXX:229.114
;MAXY:200.381
;MAXZ:14.587
;Generated with Cura_SteamEngine 4.5.0
M140 S55
M105
M190 S60
M104 S230
M105
M109 S230
M82 ;absolute extrusion mode
M201 X500.00 Y500.00 Z100.00 E5000.00 ;Setup machine max acceleration
M203 X500.00 Y500.00 Z10.00 E50.00 ;Setup machine max feedrate
M204 P500.00 R1000.00 T500.00 ;Setup Print/Retract/Travel acceleration
M205 X8.00 Y8.00 Z0.40 E5.00 ;Setup Jerk
M220 S100 ;Reset Feedrate
M221 S100 ;Reset Flowrate

G28 ;Home

G92 E0 ;Reset Extruder
G1 Z2.0 F3000 ;Move Z Axis up
G1 X10.1 Y20 Z0.28 F5000.0 ;Move to start position
G1 X10.1 Y200.0 Z0.28 F1500.0 E15 ;Draw the first line
G1 X10.4 Y200.0 Z0.28 F5000.0 ;Move to side a little
G1 X10.4 Y20 Z0.28 F1500.0 E30 ;Draw the second line
G92 E0 ;Reset Extruder
G1 Z2.0 F3000 ;Move Z Axis up

G92 E0
G92 E0
G1 F1500 E-6.75
;LAYER_COUNT:24
;LAYER:0
M107
;MESH:MV_FS_Bash_Test v3.stl
G0 F1836 X76.275 Y126.199 Z0.45
;TYPE:WALL-INNER
G1 F1500 E0
G1 F1020 X76.275 Y116.204 E1.58946
G1 X76.278 Y115.953 E1.62937
G1 X76.323 Y112.769 E2.13576
G1 X76.332 Y112.549 E2.17077
G1 X76.465 Y109.384 E2.67453
G1 X76.481 Y109.142 E2.7131
G1 X76.703 Y105.982 E3.21686
G1 X76.726 Y105.74 E3.25552
G1 X77.04 Y102.564 E3.76304
G1 X77.067 Y102.345 E3.79813
G1 X77.468 Y99.191 E4.30373
G1 X77.503 Y98.963 E4.34042
G1 X77.989 Y95.832 E4.84429
G1 X78.033 Y95.593 E4.88293
G1 X78.611 Y92.454 E5.3905
G1 X78.657 Y92.238 E5.42562
G1 X79.32 Y89.13 E5.93099
G1 X79.375 Y88.904 E5.96798
G1 X80.122 Y85.826 E6.47167
G1 X80.186 Y85.591 E6.5104
G1 X81.02 Y82.534 E7.01431
G1 X81.09 Y82.302 E7.05284
G1 X82.015 Y79.247 E7.56045
G1 X82.084 Y79.039 E7.5953
G1 X83.095 Y76.012 E8.1028
G1 X83.17 Y75.806 E8.13767
G1 X84.181 Y73.037 E8.60644
G1 X84.351 Y72.607 E8.67997
G1 X85.435 Y69.865 E9.14886
G1 X85.617 Y69.439 E9.22252
G1 X86.778 Y66.729 E9.69137
G1 X86.972 Y66.308 E9.76508
G1 X88.218 Y63.61 E10.23767
G1 X88.413 Y63.216 E10.30758
G1 X89.739 Y60.544 E10.78194
G1 X89.939 Y60.167 E10.84981
G1 X91.324 Y57.564 E11.3187
G1 X91.553 Y57.161 E11.39241
G1 X93.026 Y54.567 E11.86679
G1 X93.248 Y54.201 E11.93486
G1 X94.775 Y51.68 E12.40358
G1 X95.026 Y51.291 E12.4772
G1 X96.637 Y48.793 E12.94989
G1 X96.885 Y48.43 E13.0198
G1 X98.55 Y45.999 E13.48837
G1 X98.823 Y45.624 E13.56213
G1 X100.557 Y43.239 E14.03105
G1 X100.84 Y42.872 E14.10475
G1 X102.638 Y40.538 E14.57328
G1 X102.931 Y40.179 E14.64697
G1 X104.804 Y37.886 E15.1178
G1 X105.099 Y37.545 E15.1895
G1 X107.027 Y35.315 E15.65829
G1 X107.339 Y34.974 E15.73179
G1 X109.372 Y32.75 E16.21096
G1 X109.459 Y32.646 E16.23253
G1 X109.924 Y32.09 E16.34779
G1 X109.971 Y32.034 E16.35942
G1 X110.241 Y31.578 E16.44369
G1 X110.392 Y31.324 E16.49068
G1 X110.505 Y31.037 E16.53973
G1 X110.693 Y30.561 E16.62112
G1 X110.714 Y30.466 E16.63659
G1 X110.863 Y29.815 E16.74279
G1 X110.875 Y29.763 E16.75128
G1 X110.91 Y29.226 E16.83686
G1 X110.929 Y28.948 E16.88117
G1 X110.901 Y28.615 E16.93431
G1 X110.86 Y28.131 E17.01156
G1 X110.835 Y28.027 E17.02857
G1 X110.672 Y27.375 E17.13544
G1 X110.661 Y27.334 E17.14219
G1 X110.441 Y26.813 E17.23213
G1 X110.342 Y26.58 E17.27239
G1 X110.157 Y26.28 E17.32844
G1 X109.911 Y25.883 E17.40271
G1 X109.829 Y25.788 E17.42266
G1 X109.387 Y25.275 E17.53035
G1 X109.376 Y25.262 E17.53305
G1 X108.929 Y24.881 E17.62646
G1 X108.753 Y24.731 E17.66323
G1 X108.434 Y24.536 E17.72269
G1 X108.055 Y24.303 E17.79344
G1 X107.911 Y24.243 E17.81824
G1 X107.299 Y23.988 E17.92368
G1 X106.711 Y23.844 E18.01995
G1 X106.503 Y23.793 E18.054
G1 X106.116 Y23.762 E18.11574
G1 X105.687 Y23.726 E18.18421
G1 X105.503 Y23.738 E18.21353
G1 X104.87 Y23.782 E18.31443
G1 X104.264 Y23.922 E18.41334
G1 X104.069 Y23.967 E18.44517
G1 X103.682 Y24.123 E18.51152
G1 X103.311 Y24.273 E18.57516
G1 X103.147 Y24.371 E18.60554
G1 X102.606 Y24.693 E18.70566
G1 X102.107 Y25.109 E18.80897
G1 X101.976 Y25.218 E18.83607
G1 X101.689 Y25.544 E18.90514
G1 X101.435 Y25.833 E18.96633
G1 X101.32 Y26.014 E19.00043
G1 X100.995 Y26.524 E19.0966
G1 X100.73 Y27.135 E19.20251
G1 X100.669 Y27.276 E19.22694
G1 X100.558 Y27.705 E19.29741
G1 X100.552 Y27.725 E19.30073
G1 X100.346 Y27.725 E19.33349
G1 X100.148 Y27.725 E19.36498
G1 X100.125 Y27.725 E19.36863
G1 X100.138 Y27.65
G1 X100.148 Y27.599
G1 X100.287 Y27.157 E19.40517
G1 X100.346 Y26.969 E19.41729
G1 X100.619 Y26.367 E19.46869
G1 X100.649 Y26.317
G1 X100.966 Y25.79 E19.51634
G1 X101.121 Y25.59 E19.53731
G1 X101.372 Y25.266 E19.5697
G1 X101.692 Y24.94 E19.60561
G1 X101.84 Y24.79 E19.6196
G1 X102.353 Y24.379 E19.67029
G1 X102.364 Y24.37
G1 X102.391 Y24.353
G1 X102.932 Y24.012 E19.71981
G1 X103.14 Y23.914 E19.73894
G1 X103.524 Y23.732 E19.77248
G1 X103.942 Y23.592 E19.80712
G1 X104.169 Y23.515 E19.82557
G1 X104.787 Y23.386 E19.87448
G1 X104.819 Y23.379
G1 X104.834 Y23.378
G1 X105.474 Y23.321 E19.9243
G1 X105.698 Y23.327 E19.94038
G1 X106.15 Y23.341 E19.97606
G1 X106.56 Y23.4 E20.0089
G1 X106.81 Y23.437 E20.02921
G1 X107.404 Y23.597 E20.07698
G1 X107.459 Y23.612
G1 X108.071 Y23.858 E20.12772
G1 X108.245 Y23.953 E20.14461
G1 X108.654 Y24.176 E20.18117
G1 X108.981 Y24.407 E20.21292
G1 X109.2 Y24.562 E20.2349
G1 X109.645 Y24.962 E20.28131
G1 X109.696 Y25.008
G1 X110.142 Y25.517 E20.33337
G1 X110.238 Y25.657 E20.3481
G1 X110.514 Y26.058 E20.38613
G1 X110.691 Y26.396 E20.41642
G1 X110.825 Y26.65 E20.43968
G1 X111.033 Y27.19 E20.48435
G1 X111.066 Y27.276
G1 X111.232 Y27.928 E20.5357
G1 X111.252 Y28.077 E20.54065
G1 X111.32 Y28.579 E20.58015
G1 X111.325 Y28.942 E20.60913
G1 X111.33 Y29.253 E20.63426
G1 X111.274 Y29.803 E20.67735
G1 X111.263 Y29.906
G1 X111.117 Y30.557 E20.72873
G1 X111.07 Y30.692 E20.74148
G1 X110.895 Y31.19 E20.78249
G1 X110.745 Y31.496 E20.80968
G1 X110.601 Y31.79 E20.83581
G1 X110.305 Y32.249 E20.87816
G1 X110.238 Y32.352 E20.87897
G1 X109.776 Y32.911 E20.93473
G1 X109.672 Y33.024 E20.94721
G1 X107.637 Y35.246 E21.17554
G1 X107.34 Y35.587 E21.20973
G1 X105.405 Y37.808 E21.435
G1 X105.125 Y38.149 E21.46834
G1 X103.245 Y40.434 E21.69491
G1 X102.967 Y40.792 E21.72926
G1 X101.16 Y43.118 E21.95487
G1 X100.892 Y43.484 E21.98917
G1 X99.15 Y45.861 E22.21481
G1 X98.892 Y46.234 E22.24906
G1 X97.219 Y48.658 E22.47465
G1 X96.985 Y49.018 E22.50713
G1 X95.366 Y51.509 E22.73433
G1 X95.13 Y51.896 E22.76864
G1 X93.594 Y54.41 E22.99457
G1 X93.386 Y54.773 E23.02621
G1 X91.904 Y57.36 E23.25426
G1 X91.69 Y57.76 E23.28856
G1 X90.297 Y60.356 E23.51445
G1 X90.11 Y60.729 E23.54604
G1 X88.776 Y63.395 E23.77434
G1 X88.595 Y63.785 E23.80687
G1 X87.34 Y66.477 E24.03465
G1 X87.16 Y66.894 E24.06916
G1 X85.99 Y69.598 E24.29562
G1 X85.822 Y70.019 E24.33006
G1 X84.728 Y72.755 E24.5565
G1 X84.572 Y73.18 E24.59086
G1 X83.556 Y75.946 E24.81873
G1 X83.49 Y76.144 E24.83442
G1 X82.472 Y79.168 E25.08058
G1 X82.412 Y79.367 E25.09608
G1 X81.481 Y82.42 E25.34176
G1 X81.42 Y82.643 E25.3591
G1 X80.581 Y85.698 E25.60334
G1 X80.526 Y85.924 E25.62079
G1 X79.774 Y89 E25.86546
G1 X79.728 Y89.217 E25.88215
G1 X79.058 Y92.323 E26.12795
G1 X79.02 Y92.53 E26.14376
G1 X78.435 Y95.666 E26.3899
G1 X78.399 Y95.896 E26.40737
G1 X77.907 Y99.025 E26.65117
G1 X77.879 Y99.243 E26.6676
G1 X77.474 Y102.396 E26.91284
G1 X77.454 Y102.605 E26.92859
G1 X77.135 Y105.78 E27.17536
G1 X77.119 Y106.011 E27.1928
G1 X76.891 Y109.17 E27.43815
G1 X76.881 Y109.402 E27.4557
G1 X76.741 Y112.566 E27.70041
G1 X76.738 Y112.775 E27.71609
G1 X76.688 Y115.958 E27.96201
G1 X76.688 Y116.204 E27.98077
G1 X76.684 Y126.199 E28.75022
G1 X76.728 Y128.283 E29.0817
G1 X76.731 Y128.389 E29.09857
G1 X76.751 Y128.725 E29.15209
G1 X76.871 Y130.74 E29.4731
G1 X76.999 Y132.01 E29.67608
G1 X77.109 Y133.086 E29.84808
G1 X77.329 Y134.604 E30.09201
G1 X77.447 Y135.418 E30.22281
G1 X77.747 Y137.016 E30.48137
G1 X77.882 Y137.734 E30.59755
G1 X78.259 Y139.365 E30.86376
G1 X78.414 Y140.031 E30.9725
G1 X78.63 Y140.814 E31.10167
G1 X79.041 Y142.302 E31.34716
G1 X79.762 Y144.546 E31.72197
G1 X80.577 Y146.757 E32.09671
G1 X81.484 Y148.933 E32.4716
G1 X82.482 Y151.068 E32.84638
G1 X83.567 Y153.16 E33.22114
G1 X84.738 Y155.204 E33.59575
G1 X86.031 Y157.256 E33.98145
G1 X87.381 Y159.206 E34.35861
G1 X88.816 Y161.105 E34.73713
G1 X90.324 Y162.931 E35.11373
G1 X91.898 Y164.684 E35.48838
G1 X93.543 Y166.368 E35.86275
G1 X95.257 Y167.984 E36.23736
G1 X97.039 Y169.524 E36.6119
G1 X98.883 Y170.99 E36.98652
G1 X100.787 Y172.377 E37.36113
G1 X102.745 Y173.685 E37.73558
G1 X104.759 Y174.908 E38.11029
G1 X106.82 Y176.045 E38.4846
G1 X108.928 Y177.097 E38.85925
G1 X111.079 Y178.059 E39.23397
G1 X113.266 Y178.93 E39.60832
G1 X115.49 Y179.709 E39.98306
G1 X117.743 Y180.394 E40.35754
G1 X120.023 Y180.985 E40.7321
G1 X122.321 Y181.479 E41.10589
G1 X125.951 Y182.131 E41.69239
G1 X129.617 Y182.694 E42.28221
G1 X133.293 Y183.164 E42.87154
G1 X136.981 Y183.54 E43.46107
G1 X140.678 Y183.823 E44.0507
G1 X144.38 Y184.012 E44.64018
G1 X148.085 Y184.108 E45.22956
G1 X151.793 Y184.109 E45.81923
G1 X155.499 Y184.017 E46.40876
G1 X159.203 Y183.83 E46.99854
G1 X162.898 Y183.551 E47.58781
G1 X166.585 Y183.177 E48.17714
G1 X170.264 Y182.711 E48.76687
G1 X173.928 Y182.152 E49.35628
G1 X177.584 Y181.499 E49.94687
G1 X179.94 Y180.994 E50.33005
G1 X182.22 Y180.405 E50.70453
G1 X184.474 Y179.721 E51.07911
G1 X186.697 Y178.943 E51.45365
G1 X188.886 Y178.073 E51.82824
G1 X191.036 Y177.113 E52.20268
G1 X193.145 Y176.063 E52.57733
G1 X195.209 Y174.926 E52.95206
G1 X197.222 Y173.704 E53.32655
G1 X199.182 Y172.399 E53.70101
G1 X201.086 Y171.013 E54.07552
G1 X202.931 Y169.548 E54.45016
G1 X204.713 Y168.011 E54.82439
G1 X206.429 Y166.396 E55.19913
G1 X208.075 Y164.713 E55.57349
G1 X209.651 Y162.961 E55.94824
G1 X211.151 Y161.146 E56.32268
G1 X212.568 Y159.277 E56.69566
G1 X213.896 Y157.365 E57.06586
G1 X215.15 Y155.393 E57.4375
G1 X216.36 Y153.298 E57.82223
G1 X217.452 Y151.208 E58.19722
G1 X218.454 Y149.076 E58.57184
G1 X219.367 Y146.902 E58.94681
G1 X220.189 Y144.692 E59.32178
G1 X220.916 Y142.45 E59.69659
G1 X221.382 Y140.778 E59.97262
G1 X221.548 Y140.181 E60.07115
G1 X221.813 Y139.052 E60.25557
G1 X222.088 Y137.886 E60.44608
G1 X222.318 Y136.675 E60.64211
G1 X222.528 Y135.571 E60.82082
G1 X222.717 Y134.289 E61.02689
G1 X222.872 Y133.239 E61.19568
G1 X223.017 Y131.854 E61.41713
G1 X223.118 Y130.896 E61.57032
G1 X223.254 Y128.725 E61.91624
G1 X223.266 Y128.543 E61.94525
G1 X223.271 Y128.282 E61.98676
G1 X223.272 Y128.193 E62.00091
G1 X223.315 Y126.199 E62.31808
G1 X223.316 Y116.177 E63.91183
G1 X223.314 Y115.969 E63.94491
G1 X223.271 Y113.005 E64.41631
G1 X223.254 Y112.566 E64.48617
G1 X223.135 Y109.61 E64.95663
G1 X223.106 Y109.182 E65.02485
G1 X222.904 Y106.218 E65.4973
G1 X222.861 Y105.768 E65.56918
G1 X222.577 Y102.834 E66.03794
G1 X222.523 Y102.396 E66.10812
G1 X222.156 Y99.46 E66.57865
G1 X222.091 Y99.036 E66.64687
G1 X221.64 Y96.101 E67.11909
G1 X221.559 Y95.654 E67.19133
G1 X221.03 Y92.756 E67.6598
G1 X220.937 Y92.312 E67.73194
G1 X220.327 Y89.43 E68.2004
G1 X220.23 Y89.024 E68.26678
G1 X219.532 Y86.125 E68.74097
G1 X219.413 Y85.686 E68.8133
G1 X218.642 Y82.843 E69.28174
G1 X218.512 Y82.409 E69.35379
G1 X217.661 Y79.588 E69.82236
G1 X217.526 Y79.181 E69.89055
G1 X216.59 Y76.362 E70.36291
G1 X216.436 Y75.936 E70.43495
G1 X215.43 Y73.167 E70.90345
G1 X215.263 Y72.744 E70.97577
G1 X214.18 Y70.004 E71.4443
G1 X214.011 Y69.608 E71.51277
G1 X212.842 Y66.879 E71.98489
G1 X212.75 Y66.679 E72.01989
G1 X211.416 Y63.792 E72.52564
G1 X211.313 Y63.585 E72.56241
G1 X209.906 Y60.748 E73.066
G1 X209.797 Y60.542 E73.10306
G1 X208.309 Y57.745 E73.60688
G1 X208.195 Y57.543 E73.64377
G1 X206.631 Y54.791 E74.14714
G1 X206.523 Y54.612 E74.18039
G1 X204.869 Y51.883 E74.68785
G1 X204.756 Y51.707 E74.72111
G1 X203.027 Y49.025 E75.22856
G1 X202.895 Y48.832 E75.26575
G1 X201.105 Y46.221 E75.76917
G1 X200.968 Y46.033 E75.80616
G1 X199.105 Y43.47 E76.31004
G1 X198.978 Y43.306 E76.34303
G1 X197.031 Y40.78 E76.8502
G1 X196.898 Y40.617 E76.88365
G1 X194.88 Y38.146 E77.391
G1 X194.751 Y37.997 E77.42234
G1 X192.656 Y35.574 E77.93171
G1 X192.515 Y35.419 E77.96503
G1 X190.388 Y33.093 E78.46626
G1 X190.137 Y32.801 E78.5275
G1 X189.779 Y32.383 E78.61502
G1 X189.632 Y32.159 E78.65762
G1 X189.42 Y31.835 E78.7192
G1 X189.206 Y31.405 E78.79558
G1 X189.12 Y31.233 E78.82616
G1 X188.894 Y30.606 E78.93215
G1 X188.881 Y30.55 E78.94129
G1 X188.744 Y29.958 E79.03792
G1 X188.716 Y29.7 E79.07919
G1 X188.67 Y29.296 E79.14385
G1 X188.674 Y28.834 E79.21732
G1 X188.676 Y28.621 E79.2512
G1 X188.758 Y27.967 E79.35601
G1 X188.767 Y27.927 E79.36253
G1 X188.917 Y27.319 E79.46212
G1 X189.003 Y27.092 E79.50072
G1 X189.156 Y26.689 E79.56927
G1 X189.355 Y26.303 E79.63833
G1 X189.462 Y26.096 E79.67539
G1 X189.818 Y25.57 E79.77639
G1 X189.831 Y25.551 E79.78006
G1 X189.847 Y25.533 E79.78389
G1 X190.274 Y25.038 E79.88784
G1 X190.432 Y24.893 E79.92195
G1 X190.762 Y24.591 E79.99308
G1 X191.104 Y24.346 E80.05998
G1 X191.303 Y24.203 E80.09895
G1 X191.846 Y23.902 E80.19768
G1 X191.889 Y23.878 E80.20552
G1 X192.507 Y23.625 E80.31171
G1 X192.696 Y23.572 E80.34292
G1 X193.148 Y23.445 E80.41759
G1 X193.544 Y23.385 E80.48128
G1 X193.806 Y23.344 E80.52345
G1 X194.409 Y23.323 E80.6194
G1 X194.47 Y23.32 E80.62911
G1 X195.139 Y23.375 E80.73586
G1 X195.317 Y23.411 E80.76474
G1 X195.795 Y23.508 E80.8423
G1 X196.155 Y23.625 E80.9025
G1 X196.423 Y23.713 E80.94736
G1 X196.954 Y23.959 E81.04042
G1 X197.033 Y23.996 E81.05429
G1 X197.604 Y24.349 E81.16105
G1 X197.726 Y24.445 E81.18574
G1 X198.124 Y24.76 E81.26645
G1 X198.378 Y25.014 E81.32358
G1 X198.595 Y25.231 E81.37238
G1 X198.942 Y25.673 E81.46174
G1 X199.003 Y25.751 E81.47749
G1 X199.351 Y26.32 E81.58355
G1 X199.412 Y26.452 E81.60668
G1 X199.636 Y26.934 E81.6912
G1 X199.738 Y27.251 E81.74416
G1 X199.839 Y27.562 E81.79616
G1 X199.855 Y27.644 E81.80944
G1 X199.871 Y27.723 E81.82226
G1 X199.839 Y27.723
G1 X199.638 Y27.723 E81.83283
G1 X199.453 Y27.724 E81.85162
G1 X199.438 Y27.663
G1 X199.365 Y27.372 E81.87315
G1 X199.251 Y27.093 E81.89467
G1 X199.055 Y26.619 E81.93274
G1 X199.003 Y26.533
G1 X198.656 Y25.963 E81.98362
G1 X198.629 Y25.92 E81.98536
G1 X198.276 Y25.501 E82.02655
G1 X198.1 Y25.293 E82.04581
G1 X197.851 Y25.077 E82.0696
G1 X197.48 Y24.757 E82.10621
G1 X197.386 Y24.699
G1 X196.817 Y24.343 E82.15775
G1 X196.786 Y24.323
G1 X196.259 Y24.098 E82.20115
G1 X196.033 Y24.001 E82.21834
G1 X195.693 Y23.916 E82.24393
G1 X195.238 Y23.801 E82.2791
G1 X195.101 Y23.789 E82.28237
G1 X194.424 Y23.726 E82.33507
G1 X193.832 Y23.762 E82.38026
G1 X193.605 Y23.776 E82.396
G1 X193.24 Y23.857 E82.42349
G1 X192.804 Y23.954 E82.45676
G1 X192.659 Y24.011 E82.46262
G1 X192.041 Y24.253 E82.51326
G1 X191.514 Y24.562 E82.55955
G1 X191.335 Y24.667 E82.57373
G1 X191.03 Y24.917 E82.60283
G1 X190.701 Y25.186 E82.63448
G1 X190.584 Y25.316 E82.64326
G1 X190.153 Y25.796 E82.69241
G1 X189.814 Y26.322 E82.74018
G1 X189.709 Y26.485 E82.75334
G1 X189.541 Y26.861 E82.78398
G1 X189.375 Y27.232 E82.81408
G1 X189.322 Y27.428 E82.8271
G1 X189.161 Y28.023 E82.87426
G1 X189.092 Y28.665 E82.92357
G1 X189.073 Y28.837 E82.93521
G1 X189.092 Y29.276 E82.96805
G1 X189.11 Y29.655 E82.996
G1 X189.154 Y29.873 E83.01142
G1 X189.275 Y30.458 E83.057
G1 X189.509 Y31.088 E83.10945
G1 X189.561 Y31.227 E83.11486
G1 X189.787 Y31.627 E83.14919
G1 X189.964 Y31.941 E83.17569
G1 X190.107 Y32.122 E83.19175
G1 X190.439 Y32.541 E83.23199
G1 X190.69 Y32.815 E83.25952
G1 X192.82 Y35.139 E83.50288
G1 X192.964 Y35.305 E83.52017
G1 X195.064 Y37.725 E83.767
G1 X195.196 Y37.886 E83.7835
G1 X197.219 Y40.354 E84.02951
