;FLAVOR:Marlin
;TIME:981
;Filament used: 4.09444m
;Layer height: 0.6
;MINX:80.956
;MINY:32.044
;MINZ:0.45
;MAXX:239.044
;MAXY:209.936
;MAXZ:14.586
;Generated with Cura_SteamEngine 4.5.0
M140 S58
M105
M190 S58
M104 S225
M105
M109 S225
M82 ;absolute extrusion mode
M201 X500.00 Y500.00 Z100.00 E5000.00 ;Setup machine max acceleration
M203 X500.00 Y500.00 Z10.00 E50.00 ;Setup machine max feedrate
M204 P500.00 R1000.00 T500.00 ;Setup Print/Retract/Travel acceleration
M205 X8.00 Y8.00 Z0.40 E5.00 ;Setup Jerk
M220 S100 ;Reset Feedrate
M221 S100 ;Reset Flowrate

G28 ;Home

G92 E0 ;Reset Extruder
G1 Z2.0 F3000 ;Move Z Axis up
G1 X10.1 Y20 Z0.28 F5000.0 ;Move to start position
G1 X10.1 Y200.0 Z0.28 F1500.0 E15 ;Draw the first line
G1 X10.4 Y200.0 Z0.28 F5000.0 ;Move to side a little
G1 X10.4 Y20 Z0.28 F1500.0 E30 ;Draw the second line
G92 E0 ;Reset Extruder
G1 Z2.0 F3000 ;Move Z Axis up
G92 E0
G92 E0
G1 F1500 E-6.5
;LAYER_COUNT:24
;LAYER:0
M107
;MESH:MV_FS_Bash_Test v3.stl(1)
G0 F2925 X226.871 Y77.712 Z0.45
;TYPE:WALL-INNER
G1 F1500 E0.20788
G1 F900 X226.226 Y76.586 E0.44094
G1 X224.908 Y74.493 E0.88518
G1 X224.431 Y73.804 E1.03569
G1 X223.531 Y72.503 E1.31981
G1 X222.066 Y70.568 E1.75572
G1 X220.529 Y68.704 E2.18964
G1 X218.923 Y66.918 E2.62103
G1 X217.245 Y65.199 E3.05248
G1 X215.498 Y63.551 E3.48382
G1 X213.68 Y61.979 E3.91548
G1 X211.8 Y60.484 E4.34689
G1 X209.857 Y59.068 E4.7787
G1 X207.86 Y57.736 E5.20983
G1 X205.805 Y56.488 E5.64165
G1 X203.702 Y55.329 E6.07292
G1 X201.554 Y54.256 E6.50417
G1 X199.36 Y53.275 E6.93582
G1 X197.127 Y52.386 E7.36749
G1 X194.859 Y51.591 E7.79914
G1 X192.562 Y50.893 E8.23032
G1 X192.543 Y50.889 E8.2338
G1 X190.236 Y50.29 E8.66189
G1 X187.898 Y49.787 E9.09141
G1 X184.234 Y49.129 E9.76001
G1 X180.541 Y48.562 E10.43107
G1 X176.836 Y48.088 E11.10193
G1 X173.118 Y47.71 E11.77314
G1 X173.107 Y47.71 E11.77511
G1 X169.394 Y47.424 E12.44396
G1 X165.663 Y47.234 E13.11493
G1 X161.93 Y47.137 E13.78563
G1 X158.192 Y47.136 E14.45699
G1 X154.459 Y47.229 E15.12766
G1 X150.728 Y47.417 E15.79862
G1 X147.002 Y47.699 E16.46974
G1 X143.287 Y48.075 E17.14038
G1 X139.581 Y48.545 E17.81132
G1 X135.888 Y49.108 E18.48227
G1 X132.199 Y49.767 E19.15532
G1 X129.802 Y50.282 E19.59566
G1 X127.476 Y50.882 E20.02709
G1 X125.177 Y51.579 E20.45856
G1 X122.909 Y52.371 E20.89003
G1 X120.677 Y53.259 E21.32147
G1 X118.483 Y54.24 E21.75312
G1 X116.332 Y55.309 E22.18453
G1 X114.228 Y56.469 E22.61604
G1 X112.174 Y57.717 E23.04771
G1 X110.175 Y59.047 E23.47894
G1 X108.233 Y60.462 E23.9105
G1 X106.352 Y61.954 E24.34171
G1 X104.534 Y63.524 E24.77314
G1 X102.784 Y65.171 E25.20475
G1 X102.771 Y65.185 E25.20818
G1 X101.105 Y66.888 E25.63607
G1 X99.497 Y68.674 E26.0677
G1 X97.967 Y70.526 E26.49916
G1 X96.522 Y72.432 E26.92874
G1 X95.571 Y73.798 E27.22768
G1 X95.166 Y74.38 E27.35503
G1 X93.888 Y76.393 E27.78328
G1 X93.134 Y77.7 E28.05429
G1 X93.642 Y76.304 E28.08959
G1 X94.438 Y74.116 E28.31983
G1 X94.68 Y73.449 E28.43508
G1 X101.458 Y54.826 E31.99451
G1 X101.899 Y53.729 E32.20686
G1 X102.424 Y52.636 E32.42464
G1 X103.024 Y51.579 E32.64293
G1 X103.691 Y50.57 E32.86017
G1 X104.427 Y49.608 E33.07772
G1 X105.2 Y48.732 E33.28755
G1 X106.081 Y47.859 E33.51031
G1 X106.988 Y47.077 E33.7254
G1 X107.943 Y46.36 E33.93988
G1 X108.966 Y45.698 E34.15873
G1 X110.033 Y45.107 E34.37781
G1 X111.102 Y44.606 E34.58984
G1 X112.248 Y44.163 E34.81051
G1 X113.419 Y43.801 E35.03065
G1 X121.911 Y41.521 E36.60987
G1 X140.896 Y36.433 E40.14
G1 X143.006 Y35.905 E40.53065
G1 X145.312 Y35.4 E40.95463
G1 X147.588 Y34.977 E41.37041
G1 X149.904 Y34.624 E41.79118
G1 X152.324 Y34.335 E42.22891
G1 X154.509 Y34.15 E42.62275
G1 X156.837 Y34.024 E43.04148
G1 X159.198 Y33.97 E43.46564
G1 X159.785 Y33.964 E43.57107
G1 X160.654 Y33.966 E43.72715
G1 X162.87 Y34.011 E44.12524
G1 X165.18 Y34.126 E44.54064
G1 X167.494 Y34.319 E44.95769
G1 X169.804 Y34.585 E45.37532
G1 X172.302 Y34.956 E45.82889
G1 X174.369 Y35.334 E46.20629
G1 X176.66 Y35.826 E46.62714
G1 X178.956 Y36.396 E47.05203
G1 X198.706 Y41.686 E50.72427
G1 X199.1 Y41.791 E50.7975
G1 X206.108 Y43.669 E52.10058
G1 X207.64 Y44.122 E52.38751
G1 X208.723 Y44.53 E52.59537
G1 X209.841 Y45.043 E52.8163
G1 X210.912 Y45.622 E53.03496
G1 X211.907 Y46.255 E53.24677
G1 X212.9 Y46.986 E53.46823
G1 X213.811 Y47.759 E53.68282
G1 X214.675 Y48.599 E53.89925
G1 X215.48 Y49.497 E54.11585
G1 X216.228 Y50.456 E54.33429
G1 X216.891 Y51.442 E54.54769
G1 X217.492 Y52.48 E54.76311
G1 X218.038 Y53.591 E54.98545
G1 X218.512 Y54.752 E55.21068
G1 X225.32 Y73.451 E58.78477
G1 X225.606 Y74.238 E58.91836
G1 X226.433 Y76.51 E59.1351
G1 X226.871 Y77.712 E59.16074
G0 F2925 X226.578 Y79.131
G1 F900 X225.403 Y77.081 E59.58512
G1 X224.107 Y75.022 E60.02208
G1 X222.753 Y73.066 E60.44935
G1 X221.313 Y71.163 E60.87796
G1 X219.801 Y69.331 E61.30459
G1 X218.222 Y67.574 E61.72886
G1 X216.572 Y65.884 E62.15307
G1 X214.854 Y64.264 E62.57718
G1 X213.067 Y62.718 E63.00157
G1 X211.218 Y61.248 E63.42582
G1 X209.308 Y59.856 E63.85031
G1 X207.344 Y58.546 E64.27432
G1 X205.324 Y57.319 E64.69881
G1 X203.256 Y56.179 E65.12293
G1 X201.143 Y55.124 E65.5471
G1 X198.986 Y54.159 E65.97151
G1 X196.791 Y53.285 E66.39585
G1 X194.561 Y52.504 E66.82022
G1 X192.302 Y51.817 E67.2443
G1 X190.015 Y51.224 E67.66863
G1 X187.712 Y50.729 E68.09171
G1 X184.076 Y50.076 E68.7552
G1 X180.407 Y49.513 E69.42188
G1 X176.726 Y49.042 E70.0884
G1 X173.033 Y48.666 E70.75511
G1 X169.333 Y48.382 E71.4216
G1 X165.626 Y48.193 E72.08826
G1 X161.917 Y48.097 E72.75464
G1 X158.204 Y48.096 E73.42151
G1 X154.495 Y48.188 E74.08787
G1 X150.788 Y48.375 E74.75451
G1 X147.087 Y48.655 E75.42113
G1 X143.396 Y49.029 E76.08744
G1 X139.714 Y49.496 E76.75404
G1 X136.045 Y50.055 E77.42062
G1 X132.384 Y50.709 E78.08856
G1 X130.023 Y51.216 E78.52227
G1 X127.735 Y51.807 E78.9467
G1 X125.475 Y52.492 E79.37084
G1 X123.245 Y53.271 E79.79509
G1 X121.05 Y54.144 E80.21936
G1 X118.893 Y55.108 E80.6437
G1 X116.778 Y56.16 E81.06796
G1 X114.709 Y57.3 E81.49223
G1 X112.689 Y58.527 E81.91672
G1 X110.724 Y59.835 E82.34068
G1 X108.814 Y61.226 E82.76506
G1 X106.964 Y62.694 E83.18923
G1 X105.177 Y64.237 E83.61327
G1 X103.456 Y65.856 E84.03765
G1 X101.805 Y67.545 E84.46186
G1 X100.224 Y69.301 E84.88624
G1 X98.72 Y71.122 E85.31042
G1 X97.299 Y72.996 E85.73282
G1 X95.966 Y74.912 E86.15204
G1 X94.709 Y76.891 E86.57311
G1 X93.495 Y78.994 E87.00924
G1 X92.401 Y81.089 E87.43372
G1 X91.395 Y83.228 E87.85827
G1 X90.479 Y85.407 E88.2828
G1 X90.386 Y85.655 E88.33037
G1 X90.151 Y86.29 E88.45198
G1 X89.656 Y87.624 E88.70753
G1 X89.344 Y88.586 E88.88917
G1 X88.927 Y89.871 E89.13181
G1 X88.648 Y90.873 E89.31862
G1 X88.292 Y92.148 E89.55638
G1 X88.031 Y93.259 E89.76135
G1 X87.751 Y94.449 E89.98092
G1 X87.527 Y95.629 E90.19664
G1 X87.309 Y96.772 E90.40562
G1 X87.123 Y98.037 E90.63527
G1 X86.964 Y99.11 E90.83009
G1 X86.819 Y100.498 E91.08074
G1 X86.718 Y101.461 E91.25464
G1 X86.575 Y103.745 E91.66566
G1 X86.57 Y103.809 E91.67719
G1 X86.569 Y103.82 E91.67918
G1 X86.52 Y106.169 E92.10116
G1 X86.519 Y116.194 E93.9017
G1 X86.522 Y116.405 E93.9396
G1 X86.564 Y119.369 E94.472
G1 X86.581 Y119.805 E94.55037
G1 X86.7 Y122.769 E95.08315
G1 X86.728 Y123.187 E95.15839
G1 X86.932 Y126.165 E95.6945
G1 X86.974 Y126.609 E95.77461
G1 X87.259 Y129.554 E96.30601
G1 X87.312 Y129.983 E96.38365
G1 X87.681 Y132.932 E96.91743
G1 X87.746 Y133.356 E96.99448
G1 X88.197 Y136.296 E97.52869
G1 X88.272 Y136.71 E97.60426
G1 X88.808 Y139.646 E98.14029
G1 X88.897 Y140.069 E98.21793
G1 X89.513 Y142.977 E98.75181
G1 X89.617 Y143.41 E98.83179
G1 X90.309 Y146.286 E99.36307
G1 X90.418 Y146.691 E99.4384
G1 X91.199 Y149.572 E99.97452
G1 X91.327 Y150 E100.05475
G1 X92.181 Y152.832 E100.58602
G1 X92.313 Y153.229 E100.66116
G1 X93.254 Y156.062 E101.19731
G1 X93.404 Y156.475 E101.27623
G1 X94.415 Y159.261 E101.80854
G1 X94.575 Y159.665 E101.88658
G1 X95.667 Y162.427 E102.42001
G1 X95.844 Y162.84 E102.50072
G1 X97.007 Y165.557 E103.03153
G1 X97.096 Y165.751 E103.06986
G1 X98.435 Y168.648 E103.64307
G1 X98.535 Y168.851 E103.68371
G1 X99.947 Y171.697 E104.25432
G1 X100.047 Y171.886 E104.29272
G1 X101.546 Y174.704 E104.866
G1 X101.644 Y174.876 E104.90155
G1 X103.227 Y177.663 E105.47722
G1 X103.344 Y177.856 E105.51776
G1 X104.991 Y180.575 E106.08871
G1 X105.099 Y180.742 E106.12443
G1 X106.836 Y183.435 E106.69999
G1 X106.962 Y183.62 E106.74019
G1 X108.76 Y186.245 E107.31164
G1 X108.892 Y186.426 E107.35188
G1 X110.763 Y188.999 E107.92326
G1 X110.896 Y189.171 E107.96231
G1 X112.84 Y191.693 E108.53422
G1 X112.975 Y191.858 E108.57251
G1 X114.994 Y194.331 E109.1459
G1 X115.135 Y194.494 E109.18461
G1 X117.221 Y196.906 E109.75736
G1 X117.364 Y197.063 E109.7955
G1 X119.494 Y199.391 E110.36222
G1 X119.738 Y199.676 E110.4296
G1 X120.084 Y200.081 E110.52528
G1 X120.229 Y200.302 E110.57275
G1 X120.439 Y200.62 E110.64119
G1 X120.648 Y201.042 E110.72577
G1 X120.728 Y201.203 E110.75806
G1 X120.947 Y201.807 E110.87345
G1 X120.956 Y201.848 E110.88099
G1 X121.093 Y202.441 E110.9903
G1 X121.12 Y202.687 E111.03475
G1 X121.165 Y203.083 E111.10633
G1 X121.161 Y203.539 E111.18824
G1 X121.159 Y203.732 E111.2229
G1 X121.08 Y204.374 E111.33908
G1 X121.075 Y204.395 E111.34295
G1 X120.925 Y205.003 E111.45543
G1 X120.844 Y205.216 E111.49636
G1 X120.693 Y205.615 E111.57298
G1 X120.497 Y205.996 E111.64993
G1 X120.403 Y206.176 E111.6864
G1 X120.04 Y206.715 E111.80312
G1 X120.032 Y206.726 E111.80556
G1 X119.61 Y207.213 E111.9213
G1 X119.458 Y207.352 E111.95829
G1 X119.134 Y207.65 E112.03736
G1 X118.798 Y207.891 E112.11162
G1 X118.616 Y208.022 E112.1519
G1 X118.065 Y208.327 E112.26501
G1 X118.033 Y208.345 E112.2716
G1 X117.44 Y208.588 E112.3867
G1 X117.264 Y208.637 E112.41952
G1 X116.816 Y208.764 E112.50315
G1 X116.427 Y208.823 E112.57381
G1 X116.179 Y208.861 E112.61888
G1 X115.576 Y208.883 E112.72725
G1 X115.531 Y208.885 E112.73534
G1 X114.889 Y208.831 E112.85105
G1 X114.722 Y208.798 E112.88163
G1 X114.245 Y208.702 E112.96902
G1 X113.894 Y208.587 E113.03536
G1 X113.634 Y208.502 E113.08448
G1 X113.109 Y208.259 E113.18839
G1 X113.051 Y208.232 E113.19988
G1 X112.485 Y207.883 E113.31931
G1 X112.379 Y207.8 E113.34349
G1 X111.994 Y207.494 E113.43181
G1 X111.738 Y207.238 E113.49684
G1 X111.531 Y207.03 E113.54954
G1 X111.185 Y206.589 E113.65022
G1 X111.126 Y206.514 E113.66736
G1 X110.791 Y205.965 E113.78287
G1 X110.739 Y205.853 E113.80505
G1 X110.52 Y205.381 E113.8985
G1 X110.42 Y205.07 E113.95717
G1 X110.344 Y204.836 E114.00136
G1 X110.335 Y204.811 E114.00613
G1 X110.419 Y204.811
G1 X110.479 Y205.05 E114.00997
G1 X110.601 Y205.347 E114.01404
G1 X110.797 Y205.826 E114.02106
G1 X110.857 Y205.924
G1 X111.192 Y206.473 E114.0305
G1 X111.237 Y206.547 E114.0309
G1 X111.597 Y206.974 E114.03869
G1 X111.782 Y207.193 E114.04208
G1 X112.052 Y207.426 E114.04663
G1 X112.421 Y207.746 E114.05356
G1 X112.528 Y207.813
G1 X113.092 Y208.165 E114.06336
G1 X113.138 Y208.194
G1 X113.668 Y208.419 E114.07165
G1 X113.914 Y208.524 E114.07504
G1 X114.267 Y208.613 E114.08006
G1 X114.735 Y208.732 E114.08679
G1 X114.896 Y208.746
G1 X115.538 Y208.805 E114.09675
G1 X115.573 Y208.809
G1 X116.173 Y208.774 E114.10565
G1 X116.417 Y208.759 E114.10861
G1 X116.795 Y208.675 E114.11373
G1 X117.245 Y208.574 E114.12014
G1 X117.409 Y208.51
G1 X118.005 Y208.275 E114.12954
G1 X118.03 Y208.265
G1 X118.572 Y207.949 E114.13846
G1 X118.76 Y207.839 E114.14091
G1 X119.076 Y207.58 E114.14639
G1 X119.413 Y207.304 E114.1523
G1 X119.546 Y207.156
G1 X119.978 Y206.674 E114.16224
G1 X120.33 Y206.129 E114.1718
G1 X120.436 Y205.965 E114.17404
G1 X120.609 Y205.578 E114.17985
G1 X120.781 Y205.193 E114.18568
G1 X120.838 Y204.98
G1 X121.001 Y204.377 E114.19517
G1 X121.002 Y204.366
G1 X121.072 Y203.723 E114.20516
G1 X121.092 Y203.539 E114.20729
G1 X121.073 Y203.088 E114.21368
G1 X121.055 Y202.695 E114.21905
G1 X121.007 Y202.459 E114.22046
G1 X120.884 Y201.865 E114.2293
G1 X120.873 Y201.835
G1 X120.648 Y201.233 E114.23909
G1 X120.588 Y201.073 E114.24069
G1 X120.359 Y200.666 E114.2474
G1 X120.174 Y200.339 E114.25246
G1 X120.015 Y200.137 E114.25567
G1 X119.687 Y199.721 E114.26308
G1 X119.435 Y199.446 E114.26809
G1 X117.303 Y197.12 E114.31641
G1 X117.162 Y196.958 E114.31973
G1 X115.072 Y194.55 E114.3681
G1 X114.934 Y194.381 E114.37166
G1 X112.91 Y191.912 E114.42009
G1 X112.778 Y191.742 E114.42354
G1 X110.83 Y189.223 E114.47231
G1 X110.701 Y189.045 E114.47571
G1 X108.824 Y186.476 E114.52367
G1 X108.696 Y186.29 E114.52718
G1 X106.893 Y183.668 E114.57562
G1 X106.77 Y183.478 E114.57922
G1 X105.029 Y180.788 E114.62752
G1 X104.925 Y180.616 E114.63062
G1 X103.272 Y177.9 E114.67855
G1 X103.159 Y177.702 E114.68209
G1 X101.571 Y174.918 E114.73088
G1 X101.477 Y174.742 E114.73399
G1 X99.974 Y171.926 E114.78236
G1 X99.878 Y171.732 E114.78577
G1 X98.46 Y168.889 E114.83383
G1 X98.364 Y168.682 E114.83745
G1 X97.021 Y165.786 E114.88545
G1 X96.936 Y165.588 E114.88882
G1 X95.768 Y162.873 E114.93283
G1 X95.601 Y162.454 E114.93945
G1 X94.499 Y159.696 E114.98217
G1 X94.349 Y159.286 E114.98847
G1 X93.326 Y156.504 E115.0311
G1 X93.186 Y156.086 E115.0375
G1 X92.234 Y153.256 E115.08092
G1 X92.112 Y152.854 E115.08718
G1 X91.249 Y150.024 E115.12957
G1 X91.131 Y149.591 E115.136
G1 X90.34 Y146.713 E115.17804
G1 X90.24 Y146.304 E115.1842
G1 X89.535 Y143.43 E115.22723
G1 X89.442 Y142.993 E115.23376
G1 X88.817 Y140.087 E115.27662
G1 X88.738 Y139.66 E115.28301
G1 X88.192 Y136.725 E115.32567
G1 X88.127 Y136.308 E115.33184
G1 X87.665 Y133.369 E115.37463
G1 X87.61 Y132.942 E115.38088
G1 X87.231 Y129.994 E115.42327
G1 X87.188 Y129.562 E115.42961
G1 X86.894 Y126.617 E115.47146
G1 X86.862 Y126.171 E115.47783
G1 X86.647 Y123.193 E115.52005
G1 X86.629 Y122.773 E115.52611
G1 X86.498 Y119.809 E115.5689
G1 X86.492 Y119.371 E115.57542
G1 X86.444 Y116.407 E115.61722
G1 X86.444 Y116.195 E115.62034
G1 X86.441 Y106.17 E115.76516
G1 X86.44 Y103.821 E115.81123
G1 X86.439 Y103.801
G1 X82.573 Y105.919 E116.60296
G1 X82.444 Y105.99 E116.62941
G1 X82.173 Y105.191 E116.73602
G1 X86.421 Y103.751 E117.11228
G1 X86.458 Y103.738 E117.1126
G1 X86.603 Y101.454 E117.16232
G1 X86.665 Y100.482 E117.18724
G1 X86.796 Y99.095 E117.2291
G1 X86.9 Y98.005 E117.27011
G1 X87.064 Y96.741 E117.32599
G1 X87.216 Y95.57 E117.38921
G1 X87.409 Y94.393 E117.46262
G1 X87.611 Y93.161 E117.5549
G1 X87.829 Y92.057 E117.64919
G1 X88.095 Y90.719 E117.7844
G1 X88.325 Y89.731 E117.89674
G1 X88.645 Y88.36 E118.07652
G1 X88.898 Y87.42 E118.21418
G1 X89.289 Y85.971 E118.45433
G1 X89.486 Y85.324 E118.57327
G1 X90.002 Y83.638 E118.88994
G1 X90.799 Y81.308 E119.33223
G1 X100.567 Y54.468 E124.46213
G1 X101.018 Y53.347 E124.67915
G1 X101.575 Y52.187 E124.91027
G1 X102.205 Y51.076 E125.13966
G1 X102.905 Y50.018 E125.36751
G1 X103.685 Y48.999 E125.59799
G1 X104.504 Y48.07 E125.82042
G1 X105.426 Y47.156 E126.0536
G1 X106.385 Y46.329 E126.28104
G1 X107.396 Y45.57 E126.50809
G1 X108.47 Y44.875 E126.73785
G1 X109.589 Y44.255 E126.96762
G1 X110.695 Y43.738 E127.18689
G1 X110.725 Y43.723 E127.19292
G1 X111.902 Y43.269 E127.41949
G1 X111.939 Y43.254 E127.42666
G1 X113.15 Y42.879 E127.65435
G1 X120.147 Y41 E128.95557
G1 X120.651 Y40.865 E129.04928
G1 X120.473 Y40.375 E129.10841
G1 X119.289 Y37.122 E129.73016
G1 X120.717 Y36.997 E129.98762
G1 X121.046 Y40.759 E130.66587
G1 X140.647 Y35.507 E134.31049
G1 X140.663 Y35.502 E134.3135
G1 X142.801 Y34.967 E134.70933
G1 X145.12 Y34.459 E135.13571
G1 X147.426 Y34.031 E135.55695
G1 X149.768 Y33.674 E135.98245
G1 X149.79 Y33.672 E135.98641
G1 X152.243 Y33.378 E136.43014
G1 X154.442 Y33.192 E136.8265
G1 X156.795 Y33.064 E137.24973
