;FLAVOR:Marlin
;TIME:992
;Filament used: 4.12284m
;Layer height: 0.6
;MINX:70.956
;MINY:15.785
;MINZ:0.45
;MAXX:229.044
;MAXY:193.671
;MAXZ:14.586
;Generated with Cura_SteamEngine 4.5.0
M82 ;absolute extrusion mode
G21 ;metric values
G28 ;home all
G90 ;absolute positioning
M107 ;start with the fan off
G1 F2400 Z15.0 ;raise the nozzle 15mm
M109 S225 ;Set Extruder Temperature and Wait
M190 S62; Wait for bed temperature to reach target temp
T0 ;Switch to Extruder 1
G1 F3000 X5 Y10 Z0.2 ;move to prime start position
G92 E0 ;reset extrusion distance
G1 F600 X160 E15 ;prime nozzle in a line
G1 F5000 X180 ;quick wipe
G92 E0 ;reset extrusion distance
G92 E0
G92 E0
G1 F1500 E-6.5
;LAYER_COUNT:24
;LAYER:0
M107
;MESH:MV_FS_Bash_Test v3.stl(1)
G0 F2925 X83.128 Y148.004 Z0.45
;TYPE:WALL-INNER
G1 F1500 E0.20788
G1 F900 X83.774 Y149.13 E0.44103
G1 X85.092 Y151.222 E0.88511
G1 X85.566 Y151.907 E1.03473
G1 X86.469 Y153.211 E1.3196
G1 X87.933 Y155.148 E1.75569
G1 X89.472 Y157.012 E2.18983
G1 X91.077 Y158.799 E2.62124
G1 X92.755 Y160.516 E3.05243
G1 X94.502 Y162.163 E3.48365
G1 X96.32 Y163.737 E3.91555
G1 X98.2 Y165.232 E4.34695
G1 X100.143 Y166.647 E4.77866
G1 X102.14 Y167.98 E5.20989
G1 X104.195 Y169.227 E5.64162
G1 X106.298 Y170.387 E6.07298
G1 X108.448 Y171.46 E6.50454
G1 X110.64 Y172.44 E6.93579
G1 X112.872 Y173.33 E7.36737
G1 X115.141 Y174.125 E7.79918
G1 X117.438 Y174.823 E8.23036
G1 X119.744 Y175.419 E8.65814
G1 X119.764 Y175.425 E8.66189
G1 X122.102 Y175.928 E9.09141
G1 X125.766 Y176.587 E9.76004
G1 X129.459 Y177.153 E10.43107
G1 X133.164 Y177.628 E11.10195
G1 X136.882 Y178.006 E11.77316
G1 X136.893 Y178.006 E11.77514
G1 X140.606 Y178.292 E12.44398
G1 X144.337 Y178.482 E13.11496
G1 X148.07 Y178.579 E13.78565
G1 X151.808 Y178.58 E14.45701
G1 X155.541 Y178.487 E15.12768
G1 X159.272 Y178.299 E15.79864
G1 X162.998 Y178.017 E16.46976
G1 X166.713 Y177.641 E17.1404
G1 X170.419 Y177.17 E17.81137
G1 X174.112 Y176.608 E18.48229
G1 X177.801 Y175.948 E19.15537
G1 X180.198 Y175.436 E19.59559
G1 X182.525 Y174.833 E20.02734
G1 X184.823 Y174.136 E20.45864
G1 X187.091 Y173.345 E20.89004
G1 X189.323 Y172.456 E21.32155
G1 X191.517 Y171.476 E21.75312
G1 X193.668 Y170.405 E22.18469
G1 X195.772 Y169.246 E22.61612
G1 X197.826 Y167.999 E23.04769
G1 X199.825 Y166.668 E23.47903
G1 X201.767 Y165.254 E23.91048
G1 X203.648 Y163.762 E24.34169
G1 X205.466 Y162.192 E24.77312
G1 X207.218 Y160.544 E25.20512
G1 X208.895 Y158.827 E25.63619
G1 X210.503 Y157.042 E26.06768
G1 X212.033 Y155.19 E26.49914
G1 X213.479 Y153.283 E26.92897
G1 X214.429 Y151.918 E27.22766
G1 X214.834 Y151.335 E27.35516
G1 X216.112 Y149.323 E27.78326
G1 X216.866 Y148.016 E28.05427
G1 X216.358 Y149.412 E28.08957
G1 X215.562 Y151.599 E28.31972
G1 X215.32 Y152.266 E28.43496
G1 X208.542 Y170.89 E31.99456
G1 X208.105 Y171.976 E32.20481
G1 X207.573 Y173.086 E32.42588
G1 X206.978 Y174.134 E32.64233
G1 X206.309 Y175.146 E32.86021
G1 X205.573 Y176.107 E33.07762
G1 X204.793 Y176.993 E33.28963
G1 X203.927 Y177.849 E33.50832
G1 X203.012 Y178.639 E33.72544
G1 X202.051 Y179.36 E33.94122
G1 X201.032 Y180.02 E34.15927
G1 X199.991 Y180.597 E34.37304
G1 X198.871 Y181.121 E34.59512
G1 X197.777 Y181.544 E34.80579
G1 X196.573 Y181.918 E35.03222
G1 X189.811 Y183.734 E36.28974
G1 X169.104 Y189.282 E40.14
G1 X166.994 Y189.81 E40.53065
G1 X164.688 Y190.315 E40.95463
G1 X162.407 Y190.738 E41.37129
G1 X160.107 Y191.089 E41.78917
G1 X157.672 Y191.381 E42.22964
G1 X155.491 Y191.566 E42.62276
G1 X153.163 Y191.692 E43.04149
G1 X150.802 Y191.746 E43.46565
G1 X150.217 Y191.751 E43.57072
G1 X149.346 Y191.75 E43.72716
G1 X147.13 Y191.705 E44.12525
G1 X144.82 Y191.59 E44.54065
G1 X142.507 Y191.397 E44.95752
G1 X140.196 Y191.13 E45.37534
G1 X137.698 Y190.759 E45.82892
G1 X135.631 Y190.381 E46.20632
G1 X133.332 Y189.888 E46.62862
G1 X131.042 Y189.319 E47.05242
G1 X103.882 Y182.044 E52.10244
G1 X102.379 Y181.599 E52.38397
G1 X101.261 Y181.177 E52.5986
G1 X100.169 Y180.679 E52.81416
G1 X99.091 Y180.093 E53.03453
G1 X98.082 Y179.453 E53.24913
G1 X97.104 Y178.732 E53.46736
G1 X96.181 Y177.949 E53.68475
G1 X95.327 Y177.119 E53.89864
G1 X94.539 Y176.242 E54.1104
G1 X93.755 Y175.235 E54.33961
G1 X93.109 Y174.274 E54.54758
G1 X92.507 Y173.235 E54.76325
G1 X91.962 Y172.125 E54.98535
G1 X91.488 Y170.964 E55.21058
G1 X84.678 Y152.26 E58.78564
G1 X84.393 Y151.477 E58.91866
G1 X83.566 Y149.206 E59.13577
G1 X83.128 Y148.004 E59.16145
G0 F2925 X83.422 Y146.585
G1 F900 X84.597 Y148.635 E59.58583
G1 X85.893 Y150.693 E60.02264
G1 X87.247 Y152.648 E60.44976
G1 X88.686 Y154.553 E60.87855
G1 X90.199 Y156.385 E61.30529
G1 X91.778 Y158.142 E61.72956
G1 X93.428 Y159.831 E62.15364
G1 X95.146 Y161.451 E62.57775
G1 X96.933 Y162.998 E63.00227
G1 X98.782 Y164.468 E63.42652
G1 X100.692 Y165.859 E63.85089
G1 X102.656 Y167.17 E64.275
G1 X104.676 Y168.396 E64.6994
G1 X106.744 Y169.537 E65.1236
G1 X108.858 Y170.592 E65.54794
G1 X111.014 Y171.556 E65.97212
G1 X113.209 Y172.431 E66.39652
G1 X115.439 Y173.212 E66.82089
G1 X117.698 Y173.899 E67.24496
G1 X119.985 Y174.491 E67.66926
G1 X122.288 Y174.986 E68.09233
G1 X125.924 Y175.64 E68.75586
G1 X129.593 Y176.202 E69.42251
G1 X133.274 Y176.674 E70.08905
G1 X136.967 Y177.05 E70.75576
G1 X140.667 Y177.334 E71.42225
G1 X144.374 Y177.523 E72.08891
G1 X148.083 Y177.619 E72.75529
G1 X151.796 Y177.62 E73.42216
G1 X155.505 Y177.528 E74.08852
G1 X159.212 Y177.341 E74.75516
G1 X162.913 Y177.061 E75.42178
G1 X166.604 Y176.687 E76.08809
G1 X170.286 Y176.219 E76.75472
G1 X173.955 Y175.661 E77.42127
G1 X177.616 Y175.006 E78.08924
G1 X179.977 Y174.501 E78.52288
G1 X182.265 Y173.909 E78.94735
G1 X184.525 Y173.223 E79.37154
G1 X186.755 Y172.445 E79.79573
G1 X188.95 Y171.571 E80.22007
G1 X191.107 Y170.608 E80.64433
G1 X193.222 Y169.555 E81.06867
G1 X195.291 Y168.415 E81.49295
G1 X197.311 Y167.189 E81.91734
G1 X199.276 Y165.88 E82.34141
G1 X201.186 Y164.49 E82.76568
G1 X203.036 Y163.022 E83.18984
G1 X204.823 Y161.479 E83.61389
G1 X206.545 Y159.859 E84.03852
G1 X208.195 Y158.17 E84.4626
G1 X209.776 Y156.415 E84.88685
G1 X211.28 Y154.594 E85.31103
G1 X212.702 Y152.719 E85.73369
G1 X214.034 Y150.803 E86.1528
G1 X215.291 Y148.825 E86.57372
G1 X216.505 Y146.722 E87.00985
G1 X217.599 Y144.627 E87.43433
G1 X218.605 Y142.488 E87.85887
G1 X219.521 Y140.309 E88.28341
G1 X219.611 Y140.067 E88.32978
G1 X219.851 Y139.421 E88.45355
G1 X220.344 Y138.093 E88.70797
G1 X220.657 Y137.129 E88.89001
G1 X221.074 Y135.844 E89.13265
G1 X221.354 Y134.837 E89.32037
G1 X221.708 Y133.568 E89.55699
G1 X221.969 Y132.456 E89.76214
G1 X222.249 Y131.267 E89.98153
G1 X222.474 Y130.08 E90.19852
G1 X222.691 Y128.944 E90.40624
G1 X222.878 Y127.675 E90.63662
G1 X223.036 Y126.605 E90.83088
G1 X223.181 Y125.217 E91.08153
G1 X223.282 Y124.255 E91.25526
G1 X223.425 Y121.971 E91.66628
G1 X223.43 Y121.906 E91.67799
G1 X223.431 Y121.895 E91.67997
G1 X223.48 Y119.547 E92.10177
G1 X223.481 Y109.522 E93.90231
G1 X223.478 Y109.311 E93.94021
G1 X223.436 Y106.347 E94.47261
G1 X223.419 Y105.903 E94.55242
G1 X223.3 Y102.946 E95.08394
G1 X223.271 Y102.515 E95.16152
G1 X223.068 Y99.55 E95.6953
G1 X223.024 Y99.093 E95.77776
G1 X222.741 Y96.161 E96.3068
G1 X222.685 Y95.706 E96.38914
G1 X222.319 Y92.784 E96.91805
G1 X222.25 Y92.329 E97.0007
G1 X221.803 Y89.42 E97.5293
G1 X221.726 Y88.994 E97.60706
G1 X221.192 Y86.07 E98.14091
G1 X221.103 Y85.647 E98.21854
G1 X220.487 Y82.739 E98.75242
G1 X220.38 Y82.293 E98.8348
G1 X219.691 Y79.43 E99.36369
G1 X219.581 Y79.024 E99.43924
G1 X218.801 Y76.144 E99.97513
G1 X218.669 Y75.703 E100.05781
G1 X217.819 Y72.883 E100.5868
G1 X217.683 Y72.474 E100.66422
G1 X216.746 Y69.653 E101.1981
G1 X216.595 Y69.235 E101.27792
G1 X215.585 Y66.455 E101.80916
G1 X215.416 Y66.026 E101.89197
G1 X214.333 Y63.288 E102.4208
G1 X214.162 Y62.887 E102.49909
G1 X212.993 Y60.159 E103.03215
G1 X212.904 Y59.965 E103.07048
G1 X211.565 Y57.067 E103.64385
G1 X211.465 Y56.865 E103.68433
G1 X210.053 Y54.018 E104.2551
G1 X209.953 Y53.83 E104.29335
G1 X208.454 Y51.012 E104.86662
G1 X208.356 Y50.839 E104.90233
G1 X206.773 Y48.053 E105.47785
G1 X206.649 Y47.848 E105.52088
G1 X205.009 Y45.141 E106.08933
G1 X204.894 Y44.963 E106.12739
G1 X203.164 Y42.28 E106.70076
G1 X203.036 Y42.093 E106.74146
G1 X201.24 Y39.47 E107.31242
G1 X201.1 Y39.277 E107.35524
G1 X199.237 Y36.717 E107.92389
G1 X199.1 Y36.539 E107.96424
G1 X197.16 Y34.023 E108.53485
G1 X197.025 Y33.858 E108.57314
G1 X195.006 Y31.385 E109.14653
G1 X194.859 Y31.215 E109.1869
G1 X192.779 Y28.81 E109.75799
G1 X192.618 Y28.634 E109.80083
G1 X190.506 Y26.324 E110.36298
G1 X190.262 Y26.039 E110.43037
G1 X189.916 Y25.634 E110.52604
G1 X189.772 Y25.415 E110.57311
G1 X189.561 Y25.094 E110.6421
G1 X189.351 Y24.673 E110.7266
G1 X189.271 Y24.513 E110.75873
G1 X189.053 Y23.909 E110.87406
G1 X189.044 Y23.867 E110.88178
G1 X188.907 Y23.275 E110.99091
G1 X188.88 Y23.03 E111.03518
G1 X188.835 Y22.633 E111.10694
G1 X188.839 Y22.177 E111.18885
G1 X188.841 Y21.982 E111.22387
G1 X188.92 Y21.34 E111.34005
G1 X188.924 Y21.321 E111.34353
G1 X189.076 Y20.712 E111.45627
G1 X189.156 Y20.499 E111.49713
G1 X189.305 Y20.103 E111.57312
G1 X189.503 Y19.72 E111.65056
G1 X189.599 Y19.534 E111.68816
G1 X189.96 Y19.001 E111.80378
G1 X189.966 Y18.992 E111.80572
G1 X190.385 Y18.507 E111.92083
G1 X190.542 Y18.364 E111.95897
G1 X190.867 Y18.066 E112.03817
G1 X191.202 Y17.826 E112.11218
G1 X191.395 Y17.687 E112.1549
G1 X191.934 Y17.388 E112.26561
G1 X191.959 Y17.374 E112.27075
G1 X192.562 Y17.127 E112.38779
G1 X192.737 Y17.079 E112.42038
G1 X193.185 Y16.953 E112.50396
G1 X193.572 Y16.893 E112.5743
G1 X193.823 Y16.854 E112.61992
G1 X194.423 Y16.833 E112.72775
G1 X194.47 Y16.831 E112.7362
G1 X195.119 Y16.885 E112.85317
G1 X195.278 Y16.917 E112.8823
G1 X195.755 Y17.013 E112.96969
G1 X196.106 Y17.127 E113.03597
G1 X196.362 Y17.211 E113.08436
G1 X196.893 Y17.458 E113.18954
G1 X196.951 Y17.485 E113.20103
G1 X197.507 Y17.826 E113.31818
G1 X197.621 Y17.917 E113.34438
G1 X198.015 Y18.23 E113.43475
G1 X198.262 Y18.477 E113.49749
G1 X198.465 Y18.681 E113.54918
G1 X198.815 Y19.126 E113.65086
G1 X198.874 Y19.201 E113.668
G1 X199.207 Y19.746 E113.78271
G1 X199.261 Y19.864 E113.80602
G1 X199.481 Y20.338 E113.89987
G1 X199.575 Y20.632 E113.95531
G1 X199.656 Y20.881 E114.00234
G1 X199.664 Y20.904 E114.00671
G1 X199.585 Y20.905
G1 X199.516 Y20.652 E114.01047
G1 X199.401 Y20.372 E114.01417
G1 X199.203 Y19.892 E114.02121
G1 X199.14 Y19.788
G1 X198.808 Y19.242 E114.03079
G1 X198.763 Y19.168 E114.0312
G1 X198.399 Y18.738 E114.03902
G1 X198.217 Y18.523 E114.04243
G1 X197.957 Y18.298 E114.04686
G1 X197.579 Y17.971 E114.05387
G1 X197.463 Y17.898
G1 X196.91 Y17.552 E114.06385
G1 X196.863 Y17.523 E114.06387
G1 X196.327 Y17.294 E114.07233
G1 X196.086 Y17.191 E114.07561
G1 X195.733 Y17.102 E114.08067
G1 X195.265 Y16.983 E114.0874
G1 X195.112 Y16.97
G1 X194.463 Y16.91 E114.09741
G1 X194.426 Y16.906
G1 X193.829 Y16.942 E114.10626
G1 X193.582 Y16.957 E114.10928
G1 X193.205 Y17.041 E114.11444
G1 X192.755 Y17.142 E114.1208
G1 X192.593 Y17.205
G1 X191.987 Y17.444 E114.13036
G1 X191.97 Y17.451
G1 X191.439 Y17.761 E114.13921
G1 X191.24 Y17.877 E114.14184
G1 X190.925 Y18.135 E114.14735
G1 X190.587 Y18.412 E114.15344
G1 X190.45 Y18.565
G1 X190.022 Y19.042 E114.16308
G1 X189.674 Y19.581 E114.17257
G1 X189.564 Y19.751 E114.17495
G1 X189.39 Y20.14 E114.181
G1 X189.219 Y20.522 E114.18682
G1 X189.162 Y20.735
G1 X188.999 Y21.339 E114.1963
G1 X188.929 Y21.991 E114.20803
G1 X188.908 Y22.177 E114.21021
G1 X188.927 Y22.628 E114.2166
G1 X188.945 Y23.022 E114.22199
G1 X188.993 Y23.257 E114.22324
G1 X189.116 Y23.85 E114.23206
G1 X189.127 Y23.881
G1 X189.351 Y24.482 E114.24199
G1 X189.411 Y24.642 E114.24368
G1 X189.64 Y25.048 E114.25025
G1 X189.827 Y25.378 E114.25541
G1 X189.985 Y25.578 E114.25842
G1 X190.314 Y25.994 E114.266
G1 X190.566 Y26.269 E114.27104
G1 X192.68 Y28.576 E114.31939
G1 X192.838 Y28.758 E114.32329
G1 X194.922 Y31.159 E114.37161
G1 X195.066 Y31.335 E114.37522
G1 X197.09 Y33.804 E114.42365
G1 X197.222 Y33.974 E114.4271
G1 X199.166 Y36.487 E114.47576
G1 X199.3 Y36.67 E114.47928
G1 X201.167 Y39.227 E114.52718
G1 X201.303 Y39.426 E114.53102
G1 X203.105 Y42.045 E114.57873
G1 X203.229 Y42.237 E114.58226
G1 X204.964 Y44.917 E114.63009
G1 X205.075 Y45.1 E114.63355
G1 X206.721 Y47.803 E114.68134
G1 X206.841 Y48.013 E114.68509
G1 X208.429 Y50.797 E114.73388
G1 X208.523 Y50.974 E114.737
G1 X210.026 Y53.79 E114.78537
G1 X210.122 Y53.983 E114.78876
G1 X211.54 Y56.827 E114.83651
G1 X211.636 Y57.034 E114.84022
G1 X212.979 Y59.93 E114.88805
G1 X213.064 Y60.128 E114.89142
G1 X214.237 Y62.854 E114.93525
G1 X214.399 Y63.261 E114.94173
G1 X215.492 Y65.995 E114.984
G1 X215.651 Y66.43 E114.99075
G1 X216.672 Y69.206 E115.03285
G1 X216.814 Y69.629 E115.03945
G1 X217.762 Y72.447 E115.08277
G1 X217.888 Y72.861 E115.08914
G1 X218.747 Y75.679 E115.13151
G1 X218.869 Y76.125 E115.13821
G1 X219.66 Y79.002 E115.1806
G1 X219.76 Y79.412 E115.18681
G1 X220.462 Y82.273 E115.22957
G1 X220.558 Y82.723 E115.23646
G1 X221.183 Y85.629 E115.27932
G1 X221.262 Y86.056 E115.28571
G1 X221.806 Y88.979 E115.32819
G1 X221.873 Y89.408 E115.33446
G1 X222.331 Y92.316 E115.37672
G1 X222.39 Y92.774 E115.38342
G1 X222.766 Y95.695 E115.4255
G1 X222.812 Y96.153 E115.43222
G1 X223.106 Y99.085 E115.47444
G1 X223.139 Y99.544 E115.48111
G1 X223.353 Y102.509 E115.5237
G1 X223.372 Y102.942 E115.53004
G1 X223.502 Y105.899 E115.573
G1 X223.509 Y106.345 E115.57968
G1 X223.556 Y109.309 E115.62176
G1 X223.556 Y109.521 E115.62488
G1 X223.559 Y119.546 E115.7697
G1 X223.56 Y121.894 E115.81575
G1 X223.561 Y121.914
G1 X227.427 Y119.797 E116.60739
G1 X227.556 Y119.726 E116.63384
G1 X227.827 Y120.525 E116.74045
G1 X223.579 Y121.965 E117.11713
G1 X223.542 Y121.978 E117.11737
G1 X223.397 Y124.262 E117.16709
G1 X223.335 Y125.233 E117.19199
G1 X223.204 Y126.62 E117.23385
G1 X223.1 Y127.707 E117.27464
G1 X222.936 Y128.975 E117.33058
G1 X222.785 Y130.139 E117.39343
G1 X222.591 Y131.323 E117.46727
G1 X222.389 Y132.554 E117.55948
G1 X222.17 Y133.659 E117.65376
G1 X221.906 Y134.99 E117.78781
G1 X221.675 Y135.983 E117.90033
G1 X221.355 Y137.355 E118.07987
G1 X221.102 Y138.297 E118.21772
G1 X220.712 Y139.74 E118.45676
G1 X220.511 Y140.399 E118.57786
G1 X219.998 Y142.078 E118.89317
G1 X219.201 Y144.408 E119.33546
G1 X209.433 Y171.248 E124.46536
G1 X208.984 Y172.364 E124.68142
G1 X208.425 Y173.529 E124.9135
G1 X207.795 Y174.64 E125.14289
G1 X207.095 Y175.698 E125.37074
G1 X206.315 Y176.717 E125.60122
G1 X205.49 Y177.654 E125.82544
G1 X204.582 Y178.552 E126.05481
G1 X203.615 Y179.387 E126.28427
G1 X202.604 Y180.146 E126.51133
G1 X201.553 Y180.825 E126.73606
G1 X201.526 Y180.843 E126.74189
G1 X201.498 Y180.858 E126.74759
G1 X200.418 Y181.458 E126.96949
G1 X199.261 Y181.999 E127.19889
G1 X199.218 Y182.015 E127.20713
G1 X198.124 Y182.438 E127.41779
G1 X198.087 Y182.453 E127.42496
G1 X196.843 Y182.839 E127.6589
G1 X196.822 Y182.844 E127.66278
G1 X189.349 Y184.852 E129.05257
G1 X190.711 Y188.593 E129.76762
G1 X189.283 Y188.718 E130.02507
G1 X188.954 Y184.957 E130.70315
G1 X169.353 Y190.208 E134.34772
G1 X169.337 Y190.213 E134.35073
G1 X167.199 Y190.748 E134.74656
G1 X164.88 Y191.256 E135.17294
G1 X162.574 Y191.684 E135.59418
G1 X160.235 Y192.04 E136.01912
G1 X160.222 Y192.041 E136.02146
G1 X157.755 Y192.338 E136.46774
G1 X155.558 Y192.524 E136.86375
G1 X153.205 Y192.652 E137.28698
G1 X150.824 Y192.706 E137.71473
G1 X150.224 Y192.711 E137.8225
G1 X149.327 Y192.71 E137.9836
G1 X147.096 Y192.665 E138.38438
G1 X144.752 Y192.548 E138.8059
G1 X142.412 Y192.353 E139.22763
