;FLAVOR:Marlin
;TIME:2086
;Filament used: 4.27424m
;Layer height: 0.3
;MINX:80.632
;MINY:35.798
;MINZ:0.3
;MAXX:239.368
;MAXY:214.198
;MAXZ:14.4
;Generated with Cura_SteamEngine 4.5.0
M140 S60
M105
M190 S60
M104 S205
M105
M109 S205
M82 ;absolute extrusion mode
M201 X500.00 Y500.00 Z100.00 E5000.00 ;Setup machine max acceleration
M203 X500.00 Y500.00 Z10.00 E50.00 ;Setup machine max feedrate
M204 P500.00 R1000.00 T500.00 ;Setup Print/Retract/Travel acceleration
M205 X8.00 Y8.00 Z0.40 E5.00 ;Setup Jerk
M220 S100 ;Reset Feedrate
M221 S100 ;Reset Flowrate

G28 ;Home

G92 E0 ;Reset Extruder
G1 Z2.0 F3000 ;Move Z Axis up
G1 X10.1 Y20 Z0.28 F5000.0 ;Move to start position
G1 X10.1 Y200.0 Z0.28 F1500.0 E15 ;Draw the first line
G1 X10.4 Y200.0 Z0.28 F5000.0 ;Move to side a little
G1 X10.4 Y20 Z0.28 F1500.0 E30 ;Draw the second line
G92 E0 ;Reset Extruder
G1 Z2.0 F3000 ;Move Z Axis up
G92 E0
G92 E0
G1 F1500 E-6.5
;LAYER_COUNT:48
;LAYER:0
M107
;MESH:MV_FS_Bash_Test v4.stl
G0 F3600 X85.675 Y109.1 Z0.3
;TYPE:WALL-INNER
G1 F1500 E0
G1 F2400 X85.343 Y109.282 E0.02125
G1 X82.247 Y110.98 E0.21944
G1 X82.012 Y111.108 E0.23446
G1 X81.926 Y110.855 E0.24371
G1 X81.203 Y108.722 E0.37012
G1 X85.727 Y107.187 E0.63825
G1 X85.906 Y104.376 E0.79634
G1 X86.143 Y101.898 E0.93606
G1 X86.461 Y99.451 E1.07456
G1 X86.866 Y96.987 E1.21471
G1 X87.348 Y94.559 E1.35364
G1 X87.91 Y92.15 E1.49248
G1 X88.557 Y89.754 E1.63178
G1 X89.284 Y87.38 E1.77113
G1 X90.094 Y85.018 E1.91128
G1 X99.857 Y58.192 E3.51354
G1 X100.32 Y57.04 E3.58322
G1 X100.914 Y55.805 E3.66014
G1 X101.559 Y54.672 E3.73332
G1 X102.287 Y53.574 E3.80726
G1 X103.099 Y52.515 E3.88216
G1 X103.979 Y51.518 E3.95679
G1 X104.904 Y50.604 E4.02978
G1 X105.928 Y49.723 E4.1056
G1 X106.98 Y48.935 E4.17937
G1 X108.089 Y48.217 E4.25352
G1 X109.244 Y47.58 E4.32755
G1 X110.456 Y47.014 E4.40263
G1 X111.686 Y46.539 E4.47664
G1 X112.959 Y46.146 E4.55141
G1 X119.411 Y44.414 E4.92636
G1 X119.647 Y44.351 E4.94007
G1 X119.564 Y44.121 E4.94873
G1 X118.33 Y40.731 E5.15121
G1 X118.23 Y40.456 E5.16764
G1 X118.521 Y40.431 E5.17752
G1 X121.189 Y40.197 E5.32784
G1 X121.413 Y40.178 E5.34046
G1 X121.432 Y40.402 E5.34861
G1 X121.705 Y43.527 E5.52467
G1 X121.728 Y43.794 E5.53971
G1 X121.986 Y43.725 E5.54895
G1 X140.47 Y38.771 E6.62301
G1 X142.671 Y38.22 E6.75035
G1 X144.995 Y37.712 E6.88387
G1 X147.349 Y37.277 E7.01823
G1 X149.689 Y36.921 E7.15108
G1 X152.177 Y36.624 E7.29171
G1 X154.419 Y36.435 E7.41799
G1 X156.798 Y36.306 E7.55171
G1 X159.192 Y36.253 E7.68611
G1 X159.771 Y36.248 E7.71861
G1 X160.688 Y36.25 E7.77008
G1 X162.962 Y36.296 E7.89774
G1 X165.342 Y36.417 E8.03149
G1 X167.696 Y36.612 E8.16407
G1 X170.079 Y36.889 E8.29872
G1 X172.541 Y37.256 E8.43843
G1 X174.77 Y37.663 E8.5656
G1 X177.09 Y38.163 E8.6988
G1 X179.41 Y38.74 E8.83298
G1 X198.014 Y43.724 E9.91398
G1 X198.272 Y43.793 E9.92897
G1 X198.295 Y43.526 E9.93824
G1 X198.587 Y40.177 E10.12692
G1 X201.48 Y40.429 E10.28991
G1 X201.771 Y40.454 E10.3063
G1 X201.671 Y40.729 E10.3162
G1 X200.436 Y44.122 E10.51886
G1 X200.353 Y44.352 E10.53258
G1 X200.589 Y44.415 E10.54124
G1 X206.681 Y46.045 E10.89519
G1 X208.184 Y46.495 E10.98324
G1 X209.426 Y46.963 E11.05774
G1 X210.629 Y47.514 E11.132
G1 X211.789 Y48.146 E11.20615
G1 X212.925 Y48.869 E11.28172
G1 X213.97 Y49.64 E11.35461
G1 X214.992 Y50.507 E11.42983
G1 X215.93 Y51.422 E11.50338
G1 X216.818 Y52.415 E11.57815
G1 X217.626 Y53.455 E11.65207
G1 X218.369 Y54.557 E11.72666
G1 X219.039 Y55.718 E11.8019
G1 X219.615 Y56.897 E11.87555
G1 X220.12 Y58.136 E11.95064
G1 X229.864 Y84.899 E13.54921
G1 X230.63 Y87.121 E13.68113
G1 X231.365 Y89.491 E13.8204
G1 X232.02 Y91.885 E13.95971
G1 X232.596 Y94.315 E14.09987
G1 X233.087 Y96.741 E14.2388
G1 X233.5 Y99.197 E14.37858
G1 X233.826 Y101.641 E14.51697
G1 X234.084 Y104.236 E14.66333
G1 X234.274 Y107.187 E14.8293
G1 X238.798 Y108.722 E15.09744
G1 X238.074 Y110.856 E15.22392
G1 X238.073 Y110.857 E15.224
G1 X237.988 Y111.109 E15.23892
G1 X237.754 Y110.981 E15.24815
G1 X234.657 Y109.282 E15.44642
G1 X234.325 Y109.1 E15.46767
G1 X234.325 Y109.478 E15.47975
G1 X234.325 Y109.479 E15.4798
G1 X234.323 Y120.356 E16.09029
G1 X234.277 Y123.612 E16.27306
G1 X234.133 Y127.044 E16.46585
G1 X233.894 Y130.456 E16.65783
G1 X233.557 Y133.88 E16.85093
G1 X233.128 Y137.268 E17.04261
G1 X232.601 Y140.656 E17.23505
G1 X231.978 Y144.04 E17.42817
G1 X231.266 Y147.38 E17.61985
G1 X230.455 Y150.717 E17.81259
G1 X229.555 Y154.019 E18.00468
G1 X228.562 Y157.299 E18.19703
G1 X227.476 Y160.551 E18.38946
G1 X226.355 Y163.62 E18.57285
G1 X225.098 Y166.796 E18.76456
G1 X223.744 Y169.952 E18.95731
G1 X222.304 Y173.07 E19.15007
G1 X220.779 Y176.14 E19.34247
G1 X219.175 Y179.155 E19.53415
G1 X217.477 Y182.14 E19.72689
G1 X215.704 Y185.066 E19.91892
G1 X213.838 Y187.957 E20.11204
G1 X211.903 Y190.779 E20.30409
G1 X209.882 Y193.556 E20.49686
G1 X207.796 Y196.26 E20.68854
G1 X205.619 Y198.924 E20.88163
G1 X203.384 Y201.506 E21.0733
G1 X201.046 Y204.061 E21.26768
G1 X200.513 Y204.701 E21.31443
G1 X200.144 Y205.329 E21.35531
G1 X199.877 Y206.006 E21.39616
G1 X199.72 Y206.714 E21.43686
G1 X199.672 Y207.435 E21.47742
G1 X199.735 Y208.159 E21.51821
G1 X199.912 Y208.865 E21.55906
G1 X200.198 Y209.533 E21.59984
G1 X200.579 Y210.15 E21.64054
G1 X201.056 Y210.699 E21.68136
G1 X201.609 Y211.168 E21.72206
G1 X202.227 Y211.545 E21.76269
G1 X202.898 Y211.823 E21.80346
G1 X203.605 Y211.994 E21.84428
G1 X204.328 Y212.052 E21.88499
G1 X205.052 Y212 E21.92573
G1 X205.759 Y211.834 E21.96649
G1 X206.431 Y211.563 E22.00716
G1 X207.055 Y211.189 E22.04799
G1 X207.611 Y210.723 E22.08871
G1 X208.09 Y210.177 E22.12948
G1 X208.479 Y209.563 E22.17027
G1 X208.767 Y208.897 E22.211
G1 X208.928 Y208.272 E22.24722
G1 X208.97 Y208.146 E22.25468
G1 X209.031 Y208.074 E22.25997
G1 X209.044 Y208.067 E22.2608
G1 X209.128 Y208.054 E22.26557
G1 X210.229 Y208.054 E22.32737
G1 X210.333 Y208.054 E22.3332
G1 X210.478 Y208.072 E22.34141
G1 X210.525 Y208.099 E22.34445
G1 X210.551 Y208.136 E22.34699
G1 X210.564 Y208.204 E22.35087
G1 X210.546 Y208.306 E22.35669
G1 X210.436 Y208.914 E22.39136
G1 X210.21 Y209.627 E22.43334
G1 X209.908 Y210.296 E22.47454
G1 X209.533 Y210.918 E22.51531
G1 X209.069 Y211.516 E22.55779
G1 X208.561 Y212.034 E22.59851
G1 X207.985 Y212.497 E22.63999
G1 X207.356 Y212.889 E22.68159
G1 X206.69 Y213.205 E22.72296
G1 X205.982 Y213.443 E22.76488
G1 X205.27 Y213.592 E22.80571
G1 X204.54 Y213.656 E22.84684
G1 X203.794 Y213.634 E22.88873
G1 X203.059 Y213.526 E22.93043
G1 X202.365 Y213.338 E22.97078
G1 X201.666 Y213.057 E23.01306
G1 X201.02 Y212.705 E23.05436
G1 X200.421 Y212.281 E23.09555
G1 X199.867 Y211.78 E23.13747
G1 X199.386 Y211.231 E23.17844
G1 X198.969 Y210.622 E23.21986
G1 X198.626 Y209.967 E23.26136
G1 X198.361 Y209.277 E23.30285
G1 X198.18 Y208.564 E23.34413
G1 X198.082 Y207.831 E23.38564
G1 X198.072 Y207.1 E23.42667
G1 X198.151 Y206.353 E23.46883
G1 X198.312 Y205.641 E23.5098
G1 X198.555 Y204.951 E23.55086
G1 X198.882 Y204.285 E23.5925
G1 X199.29 Y203.656 E23.63458
G1 X199.758 Y203.092 E23.67572
G1 X201.95 Y200.701 E23.85778
G1 X204.171 Y198.149 E24.04766
G1 X206.319 Y195.535 E24.23756
G1 X208.392 Y192.863 E24.42737
G1 X210.39 Y190.133 E24.61724
G1 X212.312 Y187.349 E24.80712
G1 X214.154 Y184.512 E24.99697
G1 X215.916 Y181.625 E25.1868
G1 X217.597 Y178.688 E25.37674
G1 X219.195 Y175.706 E25.56662
G1 X220.707 Y172.682 E25.75638
G1 X222.136 Y169.614 E25.94634
G1 X223.478 Y166.508 E26.13625
G1 X224.731 Y163.366 E26.3261
G1 X225.897 Y160.191 E26.51594
G1 X226.973 Y156.984 E26.7058
G1 X227.958 Y153.748 E26.89565
G1 X228.854 Y150.485 E27.08557
G1 X229.656 Y147.199 E27.27542
G1 X230.366 Y143.891 E27.46531
G1 X230.985 Y140.565 E27.65519
G1 X231.509 Y137.223 E27.84506
G1 X231.938 Y133.867 E28.03495
G1 X232.274 Y130.501 E28.22481
G1 X232.516 Y127.127 E28.41467
G1 X232.664 Y123.748 E28.6045
G1 X232.715 Y120.369 E28.79418
G1 X232.719 Y110.186 E29.36571
G1 X232.672 Y107.981 E29.4895
G1 X232.532 Y105.655 E29.62029
G1 X232.294 Y103.334 E29.75124
G1 X231.959 Y101.027 E29.88208
G1 X231.526 Y98.735 E30.013
G1 X230.999 Y96.465 E30.14379
G1 X230.378 Y94.217 E30.27469
G1 X229.663 Y91.997 E30.4056
G1 X228.855 Y89.811 E30.5364
G1 X227.957 Y87.659 E30.66728
G1 X226.969 Y85.546 E30.7982
G1 X225.894 Y83.477 E30.92906
G1 X224.734 Y81.455 E31.0599
G1 X223.467 Y79.447 E31.19316
G1 X222.125 Y77.508 E31.32551
G1 X220.715 Y75.644 E31.45669
G1 X219.219 Y73.831 E31.58862
G1 X217.66 Y72.097 E31.7195
G1 X216.032 Y70.431 E31.85024
G1 X214.336 Y68.834 E31.98099
G1 X212.573 Y67.309 E32.11182
G1 X210.748 Y65.858 E32.24268
G1 X208.864 Y64.485 E32.37352
G1 X206.926 Y63.193 E32.50425
G1 X204.934 Y61.983 E32.63507
G1 X202.893 Y60.857 E32.7659
G1 X200.806 Y59.818 E32.89675
G1 X198.679 Y58.865 E33.02756
G1 X196.514 Y58.004 E33.15833
G1 X194.315 Y57.233 E33.28912
G1 X192.085 Y56.557 E33.41991
G1 X189.828 Y55.973 E33.55076
G1 X187.552 Y55.483 E33.68143
G1 X183.931 Y54.834 E33.8879
G1 X180.281 Y54.273 E34.09517
G1 X176.618 Y53.806 E34.30242
G1 X172.946 Y53.432 E34.50958
G1 X169.265 Y53.15 E34.71679
G1 X165.577 Y52.962 E34.92406
G1 X161.887 Y52.868 E35.13123
G1 X158.193 Y52.867 E35.33856
G1 X154.504 Y52.959 E35.54568
G1 X150.817 Y53.145 E35.75288
G1 X147.135 Y53.425 E35.96013
G1 X143.462 Y53.797 E36.16734
G1 X139.8 Y54.262 E36.37452
G1 X136.149 Y54.819 E36.58181
G1 X132.513 Y55.469 E36.78912
G1 X130.197 Y55.967 E36.92208
G1 X127.94 Y56.55 E37.05292
G1 X125.71 Y57.225 E37.18369
G1 X123.51 Y57.995 E37.31451
G1 X121.345 Y58.856 E37.44528
G1 X119.217 Y59.807 E37.5761
G1 X117.131 Y60.846 E37.7069
G1 X115.089 Y61.969 E37.8377
G1 X113.096 Y63.18 E37.96859
G1 X111.157 Y64.471 E38.09934
G1 X109.273 Y65.844 E38.23018
G1 X107.447 Y67.293 E38.36102
G1 X105.685 Y68.815 E38.4917
G1 X103.987 Y70.412 E38.62253
G1 X102.358 Y72.078 E38.75331
G1 X100.8 Y73.811 E38.8841
G1 X99.315 Y75.608 E39.01494
G1 X97.912 Y77.459 E39.1453
G1 X96.596 Y79.351 E39.27466
G1 X95.359 Y81.302 E39.40432
G1 X94.164 Y83.37 E39.53837
G1 X93.084 Y85.438 E39.66931
G1 X92.091 Y87.547 E39.80015
G1 X91.188 Y89.697 E39.93103
G1 X90.375 Y91.883 E40.06194
G1 X89.656 Y94.101 E40.1928
G1 X89.03 Y96.347 E40.32367
G1 X88.498 Y98.616 E40.45447
G1 X88.061 Y100.908 E40.58543
G1 X87.72 Y103.215 E40.71632
G1 X87.477 Y105.533 E40.84714
G1 X87.33 Y107.862 E40.97811
G1 X87.282 Y110.186 E41.10858
G1 X87.281 Y120.198 E41.67052
G1 X87.327 Y123.404 E41.85048
G1 X87.463 Y126.783 E42.04028
G1 X87.694 Y130.159 E42.23021
G1 X88.022 Y133.526 E42.42008
G1 X88.442 Y136.883 E42.60997
G1 X88.956 Y140.226 E42.7998
G1 X89.564 Y143.555 E42.98974
G1 X90.267 Y146.863 E43.17955
G1 X91.059 Y150.152 E43.36943
G1 X91.945 Y153.417 E43.55931
G1 X92.921 Y156.656 E43.74918
G1 X93.988 Y159.866 E43.93903
G1 X95.145 Y163.045 E44.12891
G1 X96.39 Y166.19 E44.31876
G1 X97.723 Y169.301 E44.50872
G1 X99.142 Y172.371 E44.69854
G1 X100.647 Y175.4 E44.88838
G1 X102.236 Y178.386 E45.07823
G1 X103.908 Y181.328 E45.26815
G1 X105.661 Y184.22 E45.45796
G1 X107.496 Y187.063 E45.64788
G1 X109.409 Y189.853 E45.83775
G1 X111.401 Y192.588 E46.02765
G1 X113.467 Y195.266 E46.21749
G1 X115.608 Y197.886 E46.4074
G1 X117.821 Y200.444 E46.59724
G1 X120.094 Y202.927 E46.78618
G1 X120.698 Y203.633 E46.83833
G1 X121.1 Y204.246 E46.87947
G1 X121.429 Y204.907 E46.92091
G1 X121.683 Y205.61 E46.96286
G1 X121.846 Y206.315 E47.00348
G1 X121.928 Y207.057 E47.04538
G1 X121.922 Y207.8 E47.08708
G1 X121.831 Y208.521 E47.12787
G1 X121.654 Y209.237 E47.16926
G1 X121.39 Y209.94 E47.21141
G1 X121.055 Y210.586 E47.25225
G1 X120.637 Y211.202 E47.29404
G1 X120.163 Y211.751 E47.33475
G1 X119.612 Y212.255 E47.37666
G1 X119.014 Y212.683 E47.41793
G1 X118.358 Y213.045 E47.45999
G1 X117.691 Y213.319 E47.50046
G1 X116.966 Y213.519 E47.54267
G1 X116.247 Y213.63 E47.5835
G1 X115.496 Y213.657 E47.62568
G1 X114.773 Y213.598 E47.66639
G1 X114.049 Y213.451 E47.70786
G1 X113.345 Y213.218 E47.74948
G1 X112.678 Y212.909 E47.79074
G1 X112.048 Y212.519 E47.83233
G1 X111.477 Y212.066 E47.87323
G1 X110.951 Y211.537 E47.9151
G1 X110.493 Y210.953 E47.95676
G1 X110.115 Y210.333 E47.99752
G1 X109.802 Y209.653 E48.03953
G1 X109.58 Y208.965 E48.08011
G1 X109.464 Y208.38 E48.11358
G1 X109.44 Y208.254 E48.12078
G1 X109.44 Y208.166 E48.12572
G1 X109.462 Y208.116 E48.12878
G1 X109.498 Y208.083 E48.13153
G1 X109.575 Y208.058 E48.13607
G1 X109.704 Y208.058 E48.14331
G1 X110.872 Y208.054 E48.20887
G1 X110.959 Y208.068 E48.21381
G1 X110.987 Y208.082 E48.21557
G1 X111.018 Y208.112 E48.21799
G1 X111.042 Y208.159 E48.22095
G1 X111.209 Y208.829 E48.25971
G1 X111.487 Y209.497 E48.30032
G1 X111.865 Y210.117 E48.34107
G1 X112.335 Y210.67 E48.38181
G1 X112.883 Y211.145 E48.42251
G1 X113.502 Y211.528 E48.46336
G1 X114.168 Y211.81 E48.50396
G1 X114.873 Y211.988 E48.54477
G1 X115.596 Y212.052 E48.58551
G1 X116.321 Y212.006 E48.62628
G1 X117.03 Y211.847 E48.66706
G1 X117.705 Y211.581 E48.70778
G1 X118.33 Y211.212 E48.74852
G1 X118.89 Y210.752 E48.78919
G1 X119.375 Y210.209 E48.83006
G1 X119.767 Y209.598 E48.8708
G1 X120.063 Y208.934 E48.91161
G1 X120.25 Y208.234 E48.95227
G1 X120.327 Y207.513 E48.99297
G1 X120.293 Y206.788 E49.03371
G1 X120.145 Y206.076 E49.07452
G1 X119.889 Y205.396 E49.1153
G1 X119.531 Y204.765 E49.15602
G1 X119.096 Y204.219 E49.1952
G1 X116.73 Y201.637 E49.39176
G1 X114.487 Y199.052 E49.58386
G1 X112.31 Y196.396 E49.7766
G1 X110.213 Y193.685 E49.96897
G1 X108.199 Y190.926 E50.16069
G1 X106.26 Y188.107 E50.35273
G1 X104.387 Y185.213 E50.54621
G1 X102.611 Y182.295 E50.73794
G1 X100.906 Y179.307 E50.93102
G1 X99.298 Y176.294 E51.12271
G1 X97.766 Y173.22 E51.31548
G1 X96.321 Y170.105 E51.50821
G1 X95.04 Y167.126 E51.69021
G1 X93.765 Y163.931 E51.88329
G1 X92.587 Y160.724 E52.07505
G1 X91.494 Y157.462 E52.26813
G1 X90.499 Y154.195 E52.45982
G1 X89.589 Y150.876 E52.65297
G1 X88.776 Y147.547 E52.84531
G1 X88.056 Y144.196 E53.03768
G1 X87.432 Y140.837 E53.22944
G1 X86.9 Y137.438 E53.42253
G1 X86.466 Y134.05 E53.61424
G1 X86.124 Y130.627 E53.80732
G1 X85.879 Y127.215 E53.99932
G1 X85.731 Y123.784 E54.19207
G1 X85.678 Y120.366 E54.38393
G1 X85.675 Y109.479 E54.99498
G1 X85.675 Y109.478 E54.99504
G1 X85.675 Y109.1 E55.00712
G0 F3600 X85.725 Y109.014
G0 X89.618 Y94.09
G0 X90.338 Y91.87
G0 X91.151 Y89.683
G0 X92.055 Y87.531
G0 X93.049 Y85.421
G0 X94.129 Y83.351
G0 X95.325 Y81.282
G0 X96.563 Y79.329
G0 X97.88 Y77.436
G0 X99.284 Y75.584
G0 X100.77 Y73.785
G0 X102.329 Y72.051
G0 X103.959 Y70.384
G0 X105.659 Y68.786
G0 X107.422 Y67.263
G0 X109.249 Y65.813
G0 X111.135 Y64.439
G0 X113.075 Y63.147
G0 X115.069 Y61.935
G0 X117.113 Y60.811
G0 X119.2 Y59.771
G0 X121.33 Y58.82
G0 X123.497 Y57.958
G0 X125.698 Y57.187
G0 X127.93 Y56.512
G0 X130.188 Y55.929
G0 X132.506 Y55.43
G0 X136.143 Y54.78
G0 X139.795 Y54.223
G0 X143.458 Y53.758
G0 X147.132 Y53.386
G0 X150.815 Y53.106
G0 X154.503 Y52.92
G0 X158.193 Y52.828
G0 X161.887 Y52.829
G0 X165.578 Y52.923
G0 X169.267 Y53.111
G0 X172.949 Y53.393
G0 X176.622 Y53.767
G0 X180.286 Y54.234
G0 X183.937 Y54.795
G0 X187.559 Y55.444
G0 X189.837 Y55.935
G0 X192.095 Y56.519
G0 X194.327 Y57.195
G0 X196.528 Y57.967
G0 X198.694 Y58.829
G0 X200.823 Y59.782
G0 X202.911 Y60.822
G0 X204.954 Y61.949
G0 X206.947 Y63.16
G0 X208.886 Y64.453
G0 X210.772 Y65.827
G0 X212.598 Y67.279
G0 X214.362 Y68.805
G0 X216.06 Y70.403
G0 X217.689 Y72.07
G0 X219.249 Y73.805
G0 X220.746 Y75.62
G0 X222.157 Y77.485
G0 X223.5 Y79.425
G0 X224.768 Y81.435
G0 X225.929 Y83.458
G0 X227.004 Y85.529
G0 X227.993 Y87.643
G0 X228.892 Y89.797
G0 X229.7 Y91.984
G0 X230.416 Y94.206
G0 X234.025 Y106.494
G0 X235.04 Y109.379
